;FLAVOR:Marlin
;TIME:559
;Filament used: 0.429588m
;Layer height: 0.4
;MINX:-17.8
;MINY:-17.8
;MINZ:0.2
;MAXX:17.8
;MAXY:17.8
;MAXZ:19.8
;Generated with Cura_SteamEngine 4.8.0
M140 S60
M105
M190 S60
M104 S195
M105
M109 S195
M82 ;absolute extrusion mode
G28 ;Home
G1 Z15.0 F6000 ;Move the platform down 15mm
;Prime the extruder
G92 E0
G1 F200 E3
G92 E0
G92 E0
G92 E0
G1 F1500 E-6.5
;LAYER_COUNT:50
;LAYER:0
M107
G0 F3600 X17.8 Y-10 Z0.2
;TYPE:SKIRT
G1 F1500 E0
G1 F1800 X17.8 Y10 E0.25081
G1 X17.76 Y10.789 E0.26071
G1 X17.641 Y11.569 E0.27061
G1 X17.443 Y12.334 E0.28052
G1 X17.169 Y13.074 E0.29041
G1 X16.821 Y13.783 E0.30032
G1 X16.403 Y14.454 E0.31023
G1 X15.92 Y15.078 E0.32013
G1 X15.377 Y15.651 E0.33003
G1 X14.778 Y16.166 E0.33993
G1 X14.13 Y16.617 E0.34983
G1 X13.439 Y17.001 E0.35975
G1 X12.714 Y17.313 E0.36965
G1 X11.961 Y17.55 E0.37955
G1 X11.187 Y17.709 E0.38945
G1 X10.402 Y17.79 E0.39935
G1 X10 Y17.8 E0.40439
G1 X-10 Y17.8 E0.6552
G1 X-10.789 Y17.76 E0.66511
G1 X-11.569 Y17.641 E0.675
G1 X-12.334 Y17.443 E0.68491
G1 X-13.074 Y17.169 E0.69481
G1 X-13.783 Y16.821 E0.70471
G1 X-14.454 Y16.403 E0.71463
G1 X-15.078 Y15.92 E0.72452
G1 X-15.651 Y15.377 E0.73442
G1 X-16.166 Y14.778 E0.74433
G1 X-16.617 Y14.13 E0.75423
G1 X-17.001 Y13.439 E0.76414
G1 X-17.313 Y12.714 E0.77404
G1 X-17.55 Y11.961 E0.78394
G1 X-17.709 Y11.187 E0.79385
G1 X-17.79 Y10.402 E0.80374
G1 X-17.8 Y10 E0.80879
G1 X-17.8 Y-10 E1.05959
G1 X-17.76 Y-10.789 E1.0695
G1 X-17.641 Y-11.569 E1.0794
G1 X-17.443 Y-12.334 E1.08931
G1 X-17.169 Y-13.074 E1.0992
G1 X-16.821 Y-13.783 E1.10911
G1 X-16.403 Y-14.454 E1.11902
G1 X-15.92 Y-15.078 E1.12891
G1 X-15.377 Y-15.651 E1.13881
G1 X-14.778 Y-16.166 E1.14872
G1 X-14.13 Y-16.617 E1.15862
G1 X-13.439 Y-17.001 E1.16853
G1 X-12.714 Y-17.313 E1.17843
G1 X-11.961 Y-17.55 E1.18833
G1 X-11.187 Y-17.709 E1.19824
G1 X-10.402 Y-17.79 E1.20814
G1 X-10 Y-17.8 E1.21318
G1 X10 Y-17.8 E1.46399
G1 X10.789 Y-17.76 E1.4739
G1 X11.569 Y-17.641 E1.48379
G1 X12.334 Y-17.443 E1.4937
G1 X13.074 Y-17.169 E1.50359
G1 X13.783 Y-16.821 E1.5135
G1 X14.454 Y-16.403 E1.52341
G1 X15.078 Y-15.92 E1.53331
G1 X15.651 Y-15.377 E1.54321
G1 X16.166 Y-14.778 E1.55311
G1 X16.617 Y-14.13 E1.56301
G1 X17.001 Y-13.439 E1.57293
G1 X17.313 Y-12.714 E1.58283
G1 X17.55 Y-11.961 E1.59273
G1 X17.709 Y-11.187 E1.60263
G1 X17.79 Y-10.402 E1.61253
G1 X17.8 Y-10 E1.61757
G0 F3600 X17.4 Y-10
G1 F1800 X17.4 Y10 E1.86838
G1 X17.36 Y10.768 E1.87803
G1 X17.241 Y11.528 E1.88767
G1 X17.043 Y12.271 E1.89732
G1 X16.769 Y12.99 E1.90696
G1 X16.422 Y13.676 E1.9166
G1 X16.006 Y14.323 E1.92625
G1 X15.525 Y14.923 E1.93589
G1 X14.984 Y15.47 E1.94554
G1 X14.389 Y15.958 E1.95519
G1 X13.747 Y16.381 E1.96483
G1 X13.064 Y16.736 E1.97449
G1 X12.349 Y17.017 E1.98412
G1 X11.607 Y17.223 E1.99378
G1 X10.849 Y17.351 E2.00342
G1 X10 Y17.4 E2.01408
G1 X-10 Y17.4 E2.26489
G1 X-10.768 Y17.36 E2.27453
G1 X-11.528 Y17.241 E2.28418
G1 X-12.271 Y17.043 E2.29382
G1 X-12.99 Y16.769 E2.30347
G1 X-13.676 Y16.422 E2.31311
G1 X-14.323 Y16.006 E2.32276
G1 X-14.923 Y15.525 E2.3324
G1 X-15.47 Y14.984 E2.34205
G1 X-15.958 Y14.389 E2.3517
G1 X-16.381 Y13.747 E2.36134
G1 X-16.736 Y13.064 E2.37099
G1 X-17.017 Y12.349 E2.38063
G1 X-17.223 Y11.607 E2.39029
G1 X-17.351 Y10.849 E2.39993
G1 X-17.4 Y10 E2.41059
G1 X-17.4 Y-10 E2.6614
G1 X-17.36 Y-10.768 E2.67104
G1 X-17.241 Y-11.528 E2.68069
G1 X-17.043 Y-12.271 E2.69033
G1 X-16.769 Y-12.99 E2.69998
G1 X-16.422 Y-13.676 E2.70962
G1 X-16.006 Y-14.323 E2.71927
G1 X-15.525 Y-14.923 E2.72891
G1 X-14.984 Y-15.47 E2.73856
G1 X-14.389 Y-15.958 E2.74821
G1 X-13.747 Y-16.381 E2.75785
G1 X-13.064 Y-16.736 E2.7675
G1 X-12.349 Y-17.017 E2.77714
G1 X-11.607 Y-17.223 E2.78679
G1 X-10.849 Y-17.351 E2.79643
G1 X-10 Y-17.4 E2.8071
G1 X10 Y-17.4 E3.05791
G1 X10.768 Y-17.36 E3.06755
G1 X11.528 Y-17.241 E3.0772
G1 X12.271 Y-17.043 E3.08684
G1 X12.99 Y-16.769 E3.09649
G1 X13.676 Y-16.422 E3.10613
G1 X14.323 Y-16.006 E3.11577
G1 X14.923 Y-15.525 E3.12542
G1 X15.47 Y-14.984 E3.13507
G1 X15.958 Y-14.389 E3.14472
G1 X16.381 Y-13.747 E3.15436
G1 X16.736 Y-13.064 E3.16401
G1 X17.017 Y-12.349 E3.17364
G1 X17.223 Y-11.607 E3.1833
G1 X17.351 Y-10.849 E3.19294
G1 X17.4 Y-10 E3.20361
G0 F3600 X17 Y-10
G1 F1800 X17 Y10 E3.45441
G1 X16.96 Y10.747 E3.46379
G1 X16.841 Y11.485 E3.47317
G1 X16.643 Y12.207 E3.48256
G1 X16.37 Y12.903 E3.49193
G1 X16.023 Y13.566 E3.50132
G1 X15.608 Y14.189 E3.5107
G1 X15.129 Y14.763 E3.52008
G1 X14.592 Y15.284 E3.52946
G1 X14.002 Y15.743 E3.53884
G1 X13.366 Y16.138 E3.54823
G1 X12.692 Y16.462 E3.5576
G1 X11.987 Y16.712 E3.56698
G1 X11.259 Y16.886 E3.57637
G1 X10.517 Y16.981 E3.58575
G1 X10 Y17 E3.59224
G1 X-10 Y17 E3.84305
G1 X-10.747 Y16.96 E3.85243
G1 X-11.485 Y16.841 E3.8618
G1 X-12.207 Y16.643 E3.87119
G1 X-12.903 Y16.37 E3.88057
G1 X-13.566 Y16.023 E3.88995
G1 X-14.189 Y15.608 E3.89934
G1 X-14.763 Y15.129 E3.90871
G1 X-15.284 Y14.592 E3.9181
G1 X-15.743 Y14.002 E3.92747
G1 X-16.138 Y13.366 E3.93686
G1 X-16.462 Y12.692 E3.94624
G1 X-16.712 Y11.987 E3.95562
G1 X-16.886 Y11.259 E3.965
G1 X-16.981 Y10.517 E3.97438
G1 X-17 Y10 E3.98087
G1 X-17 Y-10 E4.23168
G1 X-16.96 Y-10.747 E4.24106
G1 X-16.841 Y-11.485 E4.25043
G1 X-16.643 Y-12.207 E4.25982
G1 X-16.37 Y-12.903 E4.2692
G1 X-16.023 Y-13.566 E4.27858
G1 X-15.608 Y-14.189 E4.28797
G1 X-15.129 Y-14.763 E4.29735
G1 X-14.592 Y-15.284 E4.30673
G1 X-14.002 Y-15.743 E4.3161
G1 X-13.366 Y-16.138 E4.32549
G1 X-12.692 Y-16.462 E4.33487
G1 X-11.987 Y-16.712 E4.34425
G1 X-11.259 Y-16.886 E4.35364
G1 X-10.517 Y-16.981 E4.36302
G1 X-10 Y-17 E4.3695
G1 X10 Y-17 E4.62031
G1 X10.747 Y-16.96 E4.62969
G1 X11.485 Y-16.841 E4.63907
G1 X12.207 Y-16.643 E4.64846
G1 X12.903 Y-16.37 E4.65783
G1 X13.566 Y-16.023 E4.66722
G1 X14.189 Y-15.608 E4.6766
G1 X14.763 Y-15.129 E4.68598
G1 X15.284 Y-14.592 E4.69536
G1 X15.743 Y-14.002 E4.70474
G1 X16.138 Y-13.366 E4.71412
G1 X16.462 Y-12.692 E4.7235
G1 X16.712 Y-11.987 E4.73288
G1 X16.886 Y-11.259 E4.74227
G1 X16.981 Y-10.517 E4.75165
G1 X17 Y-10 E4.75814
G0 F3600 X16.6 Y-10
G1 F1800 X16.6 Y10 E5.00895
G1 X16.56 Y10.725 E5.01805
G1 X16.441 Y11.442 E5.02717
G1 X16.243 Y12.141 E5.03628
G1 X15.97 Y12.814 E5.04538
G1 X15.625 Y13.453 E5.05449
G1 X15.211 Y14.05 E5.0636
G1 X14.735 Y14.598 E5.0727
G1 X14.201 Y15.091 E5.08182
G1 X13.616 Y15.521 E5.09092
G1 X12.987 Y15.885 E5.10004
G1 X12.322 Y16.178 E5.10915
G1 X11.629 Y16.396 E5.11826
G1 X10.917 Y16.536 E5.12736
G1 X10 Y16.6 E5.13889
G1 X-10 Y16.6 E5.38969
G1 X-10.725 Y16.56 E5.3988
G1 X-11.442 Y16.441 E5.40791
G1 X-12.141 Y16.243 E5.41702
G1 X-12.814 Y15.97 E5.42613
G1 X-13.453 Y15.625 E5.43524
G1 X-14.05 Y15.211 E5.44435
G1 X-14.598 Y14.735 E5.45345
G1 X-15.091 Y14.201 E5.46257
G1 X-15.521 Y13.616 E5.47167
G1 X-15.885 Y12.987 E5.48078
G1 X-16.178 Y12.322 E5.4899
G1 X-16.396 Y11.629 E5.49901
G1 X-16.536 Y10.917 E5.50811
G1 X-16.6 Y10 E5.51963
G1 X-16.6 Y-10 E5.77044
G1 X-16.56 Y-10.725 E5.77955
G1 X-16.441 Y-11.442 E5.78866
G1 X-16.243 Y-12.141 E5.79777
G1 X-15.97 Y-12.814 E5.80688
G1 X-15.625 Y-13.453 E5.81599
G1 X-15.211 Y-14.05 E5.8251
G1 X-14.735 Y-14.598 E5.8342
G1 X-14.201 Y-15.091 E5.84331
G1 X-13.616 Y-15.521 E5.85242
G1 X-12.987 Y-15.885 E5.86153
G1 X-12.322 Y-16.178 E5.87064
G1 X-11.629 Y-16.396 E5.87976
G1 X-10.917 Y-16.536 E5.88885
G1 X-10 Y-16.6 E5.90038
G1 X10 Y-16.6 E6.15119
G1 X10.725 Y-16.56 E6.1603
G1 X11.442 Y-16.441 E6.16941
G1 X12.141 Y-16.243 E6.17852
G1 X12.814 Y-15.97 E6.18763
G1 X13.453 Y-15.625 E6.19673
G1 X14.05 Y-15.211 E6.20585
G1 X14.598 Y-14.735 E6.21495
G1 X15.091 Y-14.201 E6.22406
G1 X15.521 Y-13.616 E6.23317
G1 X15.885 Y-12.987 E6.24228
G1 X16.178 Y-12.322 E6.25139
G1 X16.396 Y-11.629 E6.2605
G1 X16.536 Y-10.917 E6.2696
G1 X16.6 Y-10 E6.28113
G0 F3600 X16.2 Y-10
G1 F1800 X16.2 Y10 E6.53194
G1 X16.16 Y10.703 E6.54077
G1 X16.041 Y11.397 E6.5496
G1 X15.843 Y12.072 E6.55842
G1 X15.571 Y12.721 E6.56724
G1 X15.226 Y13.335 E6.57608
G1 X14.815 Y13.906 E6.5849
G1 X14.341 Y14.427 E6.59373
G1 X13.811 Y14.891 E6.60257
G1 X13.232 Y15.291 E6.61139
G1 X12.611 Y15.623 E6.62022
G1 X11.957 Y15.883 E6.62905
G1 X11.277 Y16.067 E6.63788
G1 X10.581 Y16.173 E6.64671
G1 X10 Y16.2 E6.654
G1 X-10 Y16.2 E6.90481
G1 X-10.703 Y16.16 E6.91364
G1 X-11.397 Y16.041 E6.92247
G1 X-12.072 Y15.843 E6.93129
G1 X-12.721 Y15.571 E6.94012
G1 X-13.335 Y15.226 E6.94895
G1 X-13.906 Y14.815 E6.95777
G1 X-14.427 Y14.341 E6.9666
G1 X-14.891 Y13.811 E6.97544
G1 X-15.291 Y13.232 E6.98426
G1 X-15.623 Y12.611 E6.99309
G1 X-15.883 Y11.957 E7.00192
G1 X-16.067 Y11.277 E7.01075
G1 X-16.173 Y10.581 E7.01958
G1 X-16.2 Y10 E7.02688
G1 X-16.2 Y-10 E7.27768
G1 X-16.16 Y-10.703 E7.28651
G1 X-16.041 Y-11.397 E7.29534
G1 X-15.843 Y-12.072 E7.30417
G1 X-15.571 Y-12.721 E7.31299
G1 X-15.226 Y-13.335 E7.32182
G1 X-14.815 Y-13.906 E7.33064
G1 X-14.341 Y-14.427 E7.33948
G1 X-13.811 Y-14.891 E7.34831
G1 X-13.232 Y-15.291 E7.35714
G1 X-12.611 Y-15.623 E7.36597
G1 X-11.957 Y-15.883 E7.37479
G1 X-11.277 Y-16.067 E7.38363
G1 X-10.581 Y-16.173 E7.39246
G1 X-10 Y-16.2 E7.39975
G1 X10 Y-16.2 E7.65056
G1 X10.703 Y-16.16 E7.65939
G1 X11.397 Y-16.041 E7.66822
G1 X12.072 Y-15.843 E7.67704
G1 X12.721 Y-15.571 E7.68586
G1 X13.335 Y-15.226 E7.69469
G1 X13.906 Y-14.815 E7.70352
G1 X14.427 Y-14.341 E7.71235
G1 X14.891 Y-13.811 E7.72118
G1 X15.291 Y-13.232 E7.73001
G1 X15.623 Y-12.611 E7.73884
G1 X15.883 Y-11.957 E7.74767
G1 X16.067 Y-11.277 E7.7565
G1 X16.173 Y-10.581 E7.76533
G1 X16.2 Y-10 E7.77262
G0 F3600 X15.8 Y-10
G1 F1800 X15.8 Y10 E8.02343
G1 X15.76 Y10.68 E8.03197
G1 X15.641 Y11.35 E8.04051
G1 X15.444 Y12.002 E8.04905
G1 X15.172 Y12.626 E8.05758
G1 X14.828 Y13.214 E8.06613
G1 X14.418 Y13.758 E8.07467
G1 X13.947 Y14.249 E8.0832
G1 X13.422 Y14.683 E8.09174
G1 X12.85 Y15.052 E8.10028
G1 X12.238 Y15.351 E8.10882
G1 X11.596 Y15.576 E8.11735
G1 X10.931 Y15.725 E8.1259
G1 X10 Y15.8 E8.13761
G1 X-10 Y15.8 E8.38842
G1 X-10.68 Y15.76 E8.39696
G1 X-11.35 Y15.641 E8.40549
G1 X-12.002 Y15.444 E8.41403
G1 X-12.626 Y15.172 E8.42257
G1 X-13.214 Y14.828 E8.43111
G1 X-13.758 Y14.418 E8.43966
G1 X-14.249 Y13.947 E8.44819
G1 X-14.683 Y13.422 E8.45673
G1 X-15.052 Y12.85 E8.46527
G1 X-15.351 Y12.238 E8.47381
G1 X-15.576 Y11.596 E8.48234
G1 X-15.725 Y10.931 E8.49089
G1 X-15.8 Y10 E8.5026
G1 X-15.8 Y-10 E8.75341
G1 X-15.76 Y-10.68 E8.76195
G1 X-15.641 Y-11.35 E8.77048
G1 X-15.444 Y-12.002 E8.77902
G1 X-15.172 Y-12.626 E8.78756
G1 X-14.828 Y-13.214 E8.7961
G1 X-14.418 Y-13.758 E8.80465
G1 X-13.947 Y-14.249 E8.81318
G1 X-13.422 Y-14.683 E8.82172
G1 X-12.85 Y-15.052 E8.83026
G1 X-12.238 Y-15.351 E8.8388
G1 X-11.596 Y-15.576 E8.84733
G1 X-10.931 Y-15.725 E8.85587
G1 X-10 Y-15.8 E8.86759
G1 X10 Y-15.8 E9.11839
G1 X10.68 Y-15.76 E9.12694
G1 X11.35 Y-15.641 E9.13547
G1 X12.002 Y-15.444 E9.14401
G1 X12.626 Y-15.172 E9.15255
G1 X13.214 Y-14.828 E9.16109
G1 X13.758 Y-14.418 E9.16963
G1 X14.249 Y-13.947 E9.17817
G1 X14.683 Y-13.422 E9.18671
G1 X15.052 Y-12.85 E9.19524
G1 X15.351 Y-12.238 E9.20379
G1 X15.576 Y-11.596 E9.21232
G1 X15.725 Y-10.931 E9.22086
G1 X15.8 Y-10 E9.23258
G0 F3600 X15.4 Y-10
G1 F1800 X15.4 Y10 E9.48338
G1 X15.36 Y10.656 E9.49163
G1 X15.241 Y11.302 E9.49986
G1 X15.044 Y11.929 E9.5081
G1 X14.772 Y12.527 E9.51634
G1 X14.43 Y13.088 E9.52458
G1 X14.022 Y13.603 E9.53282
G1 X13.555 Y14.065 E9.54106
G1 X13.035 Y14.466 E9.54929
G1 X12.471 Y14.802 E9.55753
G1 X11.869 Y15.066 E9.56577
G1 X11.24 Y15.256 E9.57401
G1 X10.593 Y15.367 E9.58224
G1 X10 Y15.4 E9.58969
G1 X-10 Y15.4 E9.8405
G1 X-10.656 Y15.36 E9.84874
G1 X-11.302 Y15.241 E9.85698
G1 X-11.929 Y15.044 E9.86522
G1 X-12.527 Y14.772 E9.87346
G1 X-13.088 Y14.43 E9.8817
G1 X-13.603 Y14.022 E9.88994
G1 X-14.065 Y13.555 E9.89817
G1 X-14.466 Y13.035 E9.90641
G1 X-14.802 Y12.471 E9.91464
G1 X-15.066 Y11.869 E9.92288
G1 X-15.256 Y11.24 E9.93112
G1 X-15.367 Y10.593 E9.93936
G1 X-15.4 Y10 E9.9468
G1 X-15.4 Y-10 E10.19761
G1 X-15.36 Y-10.656 E10.20585
G1 X-15.241 Y-11.302 E10.21409
G1 X-15.044 Y-11.929 E10.22233
G1 X-14.772 Y-12.527 E10.23057
G1 X-14.43 Y-13.088 E10.23881
G1 X-14.022 Y-13.603 E10.24705
G1 X-13.555 Y-14.065 E10.25529
G1 X-13.035 Y-14.466 E10.26352
G1 X-12.471 Y-14.802 E10.27176
G1 X-11.869 Y-15.066 E10.28
G1 X-11.24 Y-15.256 E10.28824
G1 X-10.593 Y-15.367 E10.29647
G1 X-10 Y-15.4 E10.30392
G1 X10 Y-15.4 E10.55473
G1 X10.656 Y-15.36 E10.56297
G1 X11.302 Y-15.241 E10.57121
G1 X11.929 Y-15.044 E10.57945
G1 X12.527 Y-14.772 E10.58769
G1 X13.088 Y-14.43 E10.59592
G1 X13.603 Y-14.022 E10.60416
G1 X14.065 Y-13.555 E10.6124
G1 X14.466 Y-13.035 E10.62064
G1 X14.802 Y-12.471 E10.62887
G1 X15.066 Y-11.869 E10.63711
G1 X15.256 Y-11.24 E10.64535
G1 X15.367 Y-10.593 E10.65359
G1 X15.4 Y-10 E10.66103
G0 F3600 X15 Y-10
G1 F1800 X15 Y10 E10.91184
G1 X14.96 Y10.631 E10.91977
G1 X14.841 Y11.252 E10.9277
G1 X14.644 Y11.852 E10.93562
G1 X14.373 Y12.424 E10.94356
G1 X14.033 Y12.956 E10.95147
G1 X13.627 Y13.441 E10.9594
G1 X13.164 Y13.871 E10.96733
G1 X12.65 Y14.24 E10.97526
G1 X12.094 Y14.54 E10.98319
G1 X11.505 Y14.768 E10.99111
G1 X10.891 Y14.92 E10.99904
G1 X10 Y15 E11.01026
G1 X-10 Y15 E11.26106
G1 X-10.631 Y14.96 E11.26899
G1 X-11.252 Y14.841 E11.27692
G1 X-11.852 Y14.644 E11.28484
G1 X-12.424 Y14.373 E11.29278
G1 X-12.956 Y14.033 E11.3007
G1 X-13.441 Y13.627 E11.30863
G1 X-13.871 Y13.164 E11.31655
G1 X-14.24 Y12.65 E11.32449
G1 X-14.54 Y12.094 E11.33241
G1 X-14.768 Y11.505 E11.34033
G1 X-14.92 Y10.891 E11.34826
G1 X-15 Y10 E11.35948
G1 X-15 Y-10 E11.61029
G1 X-14.96 Y-10.631 E11.61822
G1 X-14.841 Y-11.252 E11.62615
G1 X-14.644 Y-11.852 E11.63407
G1 X-14.373 Y-12.424 E11.642
G1 X-14.033 Y-12.956 E11.64992
G1 X-13.627 Y-13.441 E11.65785
G1 X-13.164 Y-13.871 E11.66578
G1 X-12.65 Y-14.24 E11.67371
G1 X-12.094 Y-14.54 E11.68163
G1 X-11.505 Y-14.768 E11.68955
G1 X-10.891 Y-14.92 E11.69749
G1 X-10 Y-15 E11.70871
G1 X10 Y-15 E11.95951
G1 X10.631 Y-14.96 E11.96744
G1 X11.252 Y-14.841 E11.97537
G1 X11.852 Y-14.644 E11.98329
G1 X12.424 Y-14.373 E11.99123
G1 X12.956 Y-14.033 E11.99915
G1 X13.441 Y-13.627 E12.00708
G1 X13.871 Y-13.164 E12.015
G1 X14.24 Y-12.65 E12.02294
G1 X14.54 Y-12.094 E12.03086
G1 X14.768 Y-11.505 E12.03878
G1 X14.92 Y-10.891 E12.04671
G1 X15 Y-10 E12.05793
G0 F3600 X14.6 Y-10
G1 F1800 X14.6 Y10 E12.30874
G1 X14.56 Y10.605 E12.31634
G1 X14.441 Y11.199 E12.32394
G1 X14.245 Y11.773 E12.33154
G1 X13.974 Y12.316 E12.33915
G1 X13.635 Y12.819 E12.34676
G1 X13.233 Y13.272 E12.35436
G1 X12.775 Y13.669 E12.36196
G1 X12.268 Y14.002 E12.36956
G1 X11.722 Y14.266 E12.37717
G1 X11.146 Y14.455 E12.38477
G1 X10.55 Y14.567 E12.39238
G1 X10 Y14.6 E12.39929
G1 X-10 Y14.6 E12.65009
G1 X-10.605 Y14.56 E12.6577
G1 X-11.199 Y14.441 E12.66529
G1 X-11.773 Y14.245 E12.6729
G1 X-12.316 Y13.974 E12.68051
G1 X-12.819 Y13.635 E12.68812
G1 X-13.272 Y13.233 E12.69571
G1 X-13.669 Y12.775 E12.70331
G1 X-14.002 Y12.268 E12.71092
G1 X-14.266 Y11.722 E12.71852
G1 X-14.455 Y11.146 E12.72613
G1 X-14.567 Y10.55 E12.73373
G1 X-14.6 Y10 E12.74064
G1 X-14.6 Y-10 E12.99145
G1 X-14.56 Y-10.605 E12.99905
G1 X-14.441 Y-11.199 E13.00665
G1 X-14.245 Y-11.773 E13.01426
G1 X-13.974 Y-12.316 E13.02187
G1 X-13.635 Y-12.819 E13.02947
G1 X-13.233 Y-13.272 E13.03707
G1 X-12.775 Y-13.669 E13.04467
G1 X-12.268 Y-14.002 E13.05228
G1 X-11.722 Y-14.266 E13.05988
G1 X-11.146 Y-14.455 E13.06748
G1 X-10.55 Y-14.567 E13.07509
G1 X-10 Y-14.6 E13.082
G1 X10 Y-14.6 E13.3328
G1 X10.605 Y-14.56 E13.34041
G1 X11.199 Y-14.441 E13.34801
G1 X11.773 Y-14.245 E13.35561
G1 X12.316 Y-13.974 E13.36322
G1 X12.819 Y-13.635 E13.37083
G1 X13.272 Y-13.233 E13.37842
G1 X13.669 Y-12.775 E13.38602
G1 X14.002 Y-12.268 E13.39363
G1 X14.266 Y-11.722 E13.40124
G1 X14.455 Y-11.146 E13.40884
G1 X14.567 Y-10.55 E13.41644
G1 X14.6 Y-10 E13.42335
G0 F3600 X14.2 Y-10
G1 F1800 X14.2 Y10 E13.67416
G1 X14.16 Y10.578 E13.68143
G1 X14.041 Y11.145 E13.68869
G1 X13.845 Y11.69 E13.69595
G1 X13.576 Y12.203 E13.70322
G1 X13.239 Y12.674 E13.71048
G1 X12.84 Y13.094 E13.71775
G1 X12.387 Y13.456 E13.72502
G1 X11.889 Y13.751 E13.73228
G1 X11.355 Y13.976 E13.73954
G1 X10.795 Y14.124 E13.74681
G1 X10 Y14.2 E13.75682
G1 X-10 Y14.2 E14.00763
G1 X-10.578 Y14.16 E14.0149
