;FLAVOR:Marlin
;TIME:3971
;Filament used: 0.951195m
;Layer height: 0.2
;MINX:-53.986
;MINY:-53.985
;MINZ:0.2
;MAXX:53.985
;MAXY:53.979
;MAXZ:23
;Generated with Cura_SteamEngine 4.8.0
M140 S50
M105
M190 S50
M104 S195
M105
M109 S195
M82 ;absolute extrusion mode
G28 ;Home
G1 Z15.0 F6000 ;Move the platform down 15mm
;Prime the extruder
G92 E0
G1 F200 E3
G92 E0
G92 E0
G92 E0
G1 F1500 E-6.5
;LAYER_COUNT:117
;LAYER:0
M107
G0 F3600 X-19.845 Y-46.073 Z0.2
;TYPE:SKIRT
G1 F1500 E0
G1 F1800 X-17.342 Y-47.103 E0.03394
G1 X-15.558 Y-47.885 E0.05837
G1 X-15.137 Y-48.059 E0.06408
G1 X-14.36 Y-48.367 E0.07456
G1 X-13.265 Y-48.768 E0.08919
G1 X-10.706 Y-49.744 E0.12353
G1 X-8.205 Y-50.781 E0.15749
G1 X-5.16 Y-52.157 E0.19939
G1 X-4.897 Y-52.28 E0.20303
G1 X-3.843 Y-52.737 E0.21744
G1 X-2.152 Y-53.438 E0.24039
G1 X-1.482 Y-53.705 E0.24944
G1 X-.943 Y-53.876 E0.25653
G1 X-.386 Y-53.97 E0.26361
G1 X0.179 Y-53.985 E0.2707
G1 X0.741 Y-53.92 E0.27779
G1 X1.375 Y-53.745 E0.28604
G1 X2.041 Y-53.484 E0.29501
G1 X10.641 Y-49.923 E0.41174
G1 X11.175 Y-49.709 E0.41895
G1 X11.52 Y-49.558 E0.42368
G1 X12.222 Y-49.267 E0.43321
G1 X12.319 Y-49.235 E0.43449
G1 X12.873 Y-49.006 E0.442
G1 X12.969 Y-48.958 E0.44335
G1 X13.627 Y-48.685 E0.45228
G1 X14.272 Y-48.421 E0.46102
G1 X15.05 Y-48.096 E0.4716
G1 X15.54 Y-47.893 E0.47825
G1 X16.269 Y-47.591 E0.48814
G1 X16.749 Y-47.391 E0.49466
G1 X17.413 Y-47.117 E0.50367
G1 X17.859 Y-46.932 E0.50973
G1 X36.259 Y-39.311 E0.75948
G1 X36.918 Y-39.027 E0.76848
G1 X37.42 Y-38.768 E0.77556
G1 X37.881 Y-38.44 E0.78266
G1 X38.29 Y-38.051 E0.78974
G1 X38.641 Y-37.607 E0.79683
G1 X38.919 Y-37.134 E0.80371
G1 X39.224 Y-36.466 E0.81292
G1 X53.433 Y-2.165 E1.27852
G1 X53.705 Y-1.48 E1.28776
G1 X53.877 Y-.942 E1.29484
G1 X53.971 Y-.384 E1.30194
G1 X53.985 Y0.181 E1.30902
G1 X53.919 Y0.742 E1.31611
G1 X53.74 Y1.387 E1.3245
G1 X53.512 Y1.975 E1.33241
G1 X39.296 Y36.291 E1.79821
G1 X39.022 Y36.928 E1.80691
G1 X38.763 Y37.43 E1.81399
G1 X38.435 Y37.89 E1.82108
G1 X38.046 Y38.3 E1.82816
G1 X37.603 Y38.651 E1.83525
G1 X37.003 Y38.988 E1.84388
G1 X36.413 Y39.246 E1.85196
G1 X2.165 Y53.433 E2.31683
G1 X1.501 Y53.698 E2.3258
G1 X0.963 Y53.87 E2.33288
G1 X0.406 Y53.964 E2.33996
G1 X-.16 Y53.979 E2.34706
G1 X-.721 Y53.914 E2.35414
G1 X-1.296 Y53.765 E2.36159
G1 X-1.975 Y53.512 E2.37068
G1 X-36.306 Y39.29 E2.83668
G1 X-36.929 Y39.022 E2.84519
G1 X-37.431 Y38.763 E2.85227
G1 X-37.892 Y38.435 E2.85937
G1 X-38.301 Y38.046 E2.86645
G1 X-38.652 Y37.602 E2.87354
G1 X-39.031 Y36.91 E2.88344
G1 X-39.949 Y34.745 E2.91293
G1 X-40.036 Y34.49 E2.91631
G1 X-40.428 Y33.565 E2.9289
G1 X-53.43 Y2.172 E3.35501
G1 X-53.705 Y1.483 E3.36432
G1 X-53.877 Y0.944 E3.37141
G1 X-53.971 Y0.387 E3.3785
G1 X-53.986 Y-.178 E3.38558
G1 X-53.921 Y-.74 E3.39268
G1 X-53.734 Y-1.407 E3.40137
G1 X-53.516 Y-1.965 E3.40888
G1 X-39.313 Y-36.255 E3.87431
G1 X-39.02 Y-36.933 E3.88358
G1 X-38.76 Y-37.435 E3.89067
G1 X-38.432 Y-37.895 E3.89775
G1 X-38.042 Y-38.304 E3.90484
G1 X-37.598 Y-38.654 E3.91193
G1 X-36.997 Y-38.991 E3.92057
G1 X-36.434 Y-39.238 E3.92828
G1 X-35.715 Y-39.536 E3.93804
G1 X-34.838 Y-39.885 E3.94988
G1 X-32.334 Y-40.923 E3.98387
G1 X-31.852 Y-41.133 E3.99046
G1 X-31.731 Y-41.183 E3.9921
G1 X-30.129 Y-41.82 E4.01372
G1 X-26.955 Y-43.146 E4.05686
G1 X-26.42 Y-43.378 E4.06417
G1 X-25.849 Y-43.606 E4.07188
G1 X-23.541 Y-44.561 E4.10321
G1 X-22.321 Y-45.083 E4.11985
G1 X-21.745 Y-45.322 E4.12767
G1 X-20.053 Y-45.994 E4.1505
G1 X-19.845 Y-46.073 E4.15329
G0 F3600 X-19.698 Y-45.701
G1 F1800 X-17.171 Y-46.741 E4.18756
G1 X-15.405 Y-47.515 E4.21174
G1 X-14.989 Y-47.687 E4.21738
G1 X-14.223 Y-47.991 E4.22772
G1 X-13.113 Y-48.397 E4.24254
G1 X-10.577 Y-49.365 E4.27658
G1 X-8.063 Y-50.407 E4.31071
G1 X-4.981 Y-51.8 E4.35312
G1 X-4.738 Y-51.913 E4.35648
G1 X-3.69 Y-52.367 E4.3708
G1 X-2.004 Y-53.066 E4.39369
G1 X-1.334 Y-53.333 E4.40273
G1 X-.822 Y-53.494 E4.40947
G1 X-.292 Y-53.577 E4.41619
G1 X0.244 Y-53.581 E4.42291
G1 X0.775 Y-53.504 E4.42964
G1 X1.369 Y-53.321 E4.43744
G1 X1.892 Y-53.113 E4.4445
G1 X10.55 Y-49.528 E4.56201
G1 X11.021 Y-49.34 E4.56837
G1 X11.36 Y-49.191 E4.57301
G1 X12.1 Y-48.884 E4.58306
G1 X12.166 Y-48.865 E4.58392
G1 X12.72 Y-48.636 E4.59144
G1 X12.813 Y-48.589 E4.59275
G1 X13.523 Y-48.295 E4.60238
G1 X14.136 Y-48.044 E4.61069
G1 X14.849 Y-47.746 E4.62038
G1 X15.326 Y-47.555 E4.62682
G1 X15.396 Y-47.52 E4.62781
G1 X16.143 Y-47.21 E4.63795
G1 X16.585 Y-47.027 E4.64395
G1 X17.168 Y-46.786 E4.65186
G1 X17.694 Y-46.567 E4.659
G1 X36.151 Y-38.922 E4.90953
G1 X36.76 Y-38.66 E4.91784
G1 X37.235 Y-38.412 E4.92456
G1 X37.669 Y-38.096 E4.9313
G1 X38.05 Y-37.719 E4.93802
G1 X38.372 Y-37.29 E4.94474
G1 X38.648 Y-36.781 E4.95201
G1 X38.857 Y-36.308 E4.95849
G1 X53.082 Y-1.966 E5.42464
G1 X53.334 Y-1.333 E5.43318
G1 X53.494 Y-.821 E5.43991
G1 X53.577 Y-.291 E5.44663
G1 X53.581 Y0.245 E5.45336
G1 X53.504 Y0.776 E5.46008
G1 X53.308 Y1.403 E5.46832
G1 X53.123 Y1.869 E5.47461
G1 X38.929 Y36.132 E5.93969
G1 X38.655 Y36.769 E5.94839
G1 X38.407 Y37.245 E5.95512
G1 X38.091 Y37.678 E5.96184
G1 X37.714 Y38.06 E5.96857
G1 X37.285 Y38.381 E5.97529
G1 X36.838 Y38.624 E5.98167
G1 X36.256 Y38.878 E5.98963
G1 X2.012 Y53.063 E6.45445
G1 X1.353 Y53.326 E6.46335
G1 X0.842 Y53.488 E6.47007
G1 X0.312 Y53.571 E6.4768
G1 X-.224 Y53.575 E6.48352
G1 X-1.011 Y53.433 E6.49355
G1 X-1.488 Y53.275 E6.49985
G1 X-1.869 Y53.123 E6.50499
G1 X-36.148 Y38.923 E6.97029
G1 X-36.771 Y38.655 E6.97879
G1 X-37.246 Y38.407 E6.98551
G1 X-37.679 Y38.091 E6.99224
G1 X-38.061 Y37.714 E6.99897
G1 X-38.382 Y37.285 E7.00568
G1 X-38.662 Y36.753 E7.01322
G1 X-39.58 Y34.588 E7.04271
G1 X-39.657 Y34.36 E7.04573
G1 X-40.058 Y33.412 E7.05864
G1 X-53.059 Y2.023 E7.4847
G1 X-53.334 Y1.334 E7.494
G1 X-53.495 Y0.823 E7.50072
G1 X-53.578 Y0.293 E7.50745
G1 X-53.582 Y-.243 E7.51417
G1 X-53.506 Y-.774 E7.5209
G1 X-53.36 Y-1.266 E7.52733
G1 X-53.145 Y-1.816 E7.53474
G1 X-38.922 Y-36.151 E8.00079
G1 X-38.653 Y-36.774 E8.0093
G1 X-38.404 Y-37.249 E8.01603
G1 X-38.088 Y-37.682 E8.02275
G1 X-37.711 Y-38.063 E8.02947
G1 X-37.281 Y-38.384 E8.0362
G1 X-36.832 Y-38.627 E8.0426
G1 X-36.276 Y-38.87 E8.05021
G1 X-35.567 Y-39.164 E8.05984
G1 X-34.719 Y-39.501 E8.07128
G1 X-32.152 Y-40.565 E8.10613
G1 X-31.692 Y-40.766 E8.11242
G1 X-31.583 Y-40.811 E8.1139
G1 X-30.006 Y-41.438 E8.13518
G1 X-26.801 Y-42.777 E8.17874
G1 X-26.272 Y-43.006 E8.18597
G1 X-25.742 Y-43.218 E8.19313
G1 X-23.342 Y-44.211 E8.2257
G1 X-22.167 Y-44.714 E8.24173
G1 X-21.597 Y-44.951 E8.24947
G1 X-19.91 Y-45.62 E8.27223
G1 X-19.698 Y-45.701 E8.27507
G0 F3600 X-19.531 Y-45.337
G1 F1800 X-17.021 Y-46.37 E8.30911
G1 X-15.252 Y-47.146 E8.33334
G1 X-14.841 Y-47.316 E8.33891
G1 X-14.171 Y-47.583 E8.34796
G1 X-13.017 Y-48.006 E8.36337
G1 X-10.399 Y-49.005 E8.39851
G1 X-7.899 Y-50.042 E8.43245
G1 X-4.796 Y-51.444 E8.47515
G1 X-4.578 Y-51.546 E8.47817
G1 X-3.537 Y-51.998 E8.4924
G1 X-1.856 Y-52.695 E8.51522
G1 X-1.186 Y-52.962 E8.52427
G1 X-.703 Y-53.111 E8.53061
G1 X-.202 Y-53.183 E8.53695
G1 X0.303 Y-53.174 E8.54329
G1 X0.801 Y-53.087 E8.54963
G1 X1.322 Y-52.911 E8.55652
G1 X1.775 Y-52.729 E8.56265
G1 X10.431 Y-49.144 E8.68014
G1 X11.15 Y-48.851 E8.68987
G1 X11.203 Y-48.824 E8.69062
G1 X11.913 Y-48.529 E8.70026
G1 X12.013 Y-48.495 E8.70158
G1 X12.567 Y-48.266 E8.7091
G1 X12.649 Y-48.225 E8.71025
G1 X13.313 Y-47.949 E8.71927
G1 X13.961 Y-47.684 E8.72805
G1 X14.744 Y-47.357 E8.73869
G1 X15.232 Y-47.155 E8.74531
G1 X15.954 Y-46.856 E8.75511
G1 X16.431 Y-46.657 E8.76159
G1 X17.105 Y-46.379 E8.77074
G1 X17.537 Y-46.199 E8.77661
G1 X35.993 Y-38.555 E9.02712
G1 X36.602 Y-38.293 E9.03543
G1 X37.049 Y-38.057 E9.04177
G1 X37.453 Y-37.753 E9.04811
G1 X37.805 Y-37.39 E9.05445
G1 X38.202 Y-36.778 E9.0636
G1 X38.489 Y-36.15 E9.07226
G1 X52.71 Y-1.818 E9.53827
G1 X52.962 Y-1.185 E9.54681
G1 X53.111 Y-.702 E9.55315
G1 X53.183 Y-.201 E9.5595
G1 X53.174 Y0.304 E9.56583
G1 X53.087 Y0.802 E9.57217
G1 X52.904 Y1.34 E9.5793
G1 X52.753 Y1.716 E9.58438
G1 X38.562 Y35.974 E10.04939
G1 X38.288 Y36.611 E10.05808
G1 X38.052 Y37.059 E10.06443
G1 X37.748 Y37.463 E10.07077
G1 X37.385 Y37.815 E10.07711
G1 X36.971 Y38.105 E10.08345
G1 X36.518 Y38.33 E10.0898
G1 X36.064 Y38.525 E10.09599
G1 X1.821 Y52.709 E10.56079
G1 X1.205 Y52.955 E10.56911
G1 X0.722 Y53.105 E10.57545
G1 X0.221 Y53.177 E10.5818
G1 X-.284 Y53.169 E10.58814
G1 X-.897 Y53.05 E10.59597
G1 X-1.678 Y52.769 E10.60637
G1 X-35.99 Y38.556 E11.07211
G1 X-36.613 Y38.288 E11.08062
G1 X-37.06 Y38.052 E11.08696
G1 X-37.464 Y37.748 E11.0933
G1 X-37.816 Y37.385 E11.09964
G1 X-38.106 Y36.971 E11.10598
G1 X-38.294 Y36.597 E11.11123
G1 X-39.212 Y34.432 E11.14072
G1 X-39.286 Y34.209 E11.14366
G1 X-39.688 Y33.259 E11.1566
G1 X-52.687 Y1.875 E11.58259
G1 X-52.962 Y1.186 E11.59189
G1 X-53.112 Y0.703 E11.59824
G1 X-53.184 Y0.203 E11.60457
G1 X-53.176 Y-.303 E11.61092
G1 X-53.088 Y-.801 E11.61726
G1 X-52.924 Y-1.291 E11.62374
G1 X-52.759 Y-1.702 E11.62929
G1 X-38.555 Y-35.993 E12.09475
G1 X-38.286 Y-36.616 E12.10326
G1 X-38.049 Y-37.062 E12.10959
G1 X-37.746 Y-37.466 E12.11592
G1 X-37.382 Y-37.818 E12.12227
G1 X-36.967 Y-38.107 E12.12861
G1 X-36.499 Y-38.339 E12.13516
G1 X-36.084 Y-38.517 E12.14083
G1 X-35.419 Y-38.792 E12.14985
G1 X-34.567 Y-39.131 E12.16135
G1 X-31.996 Y-40.196 E12.19625
G1 X-31.435 Y-40.44 E12.20392
G1 X-29.836 Y-41.076 E12.2255
G1 X-26.647 Y-42.408 E12.26884
G1 X-26.124 Y-42.635 E12.27599
G1 X-25.553 Y-42.863 E12.2837
G1 X-23.189 Y-43.841 E12.31578
G1 X-22.014 Y-44.345 E12.33182
G1 X-21.449 Y-44.579 E12.33948
G1 X-19.767 Y-45.247 E12.36218
G1 X-19.531 Y-45.337 E12.36535
G1 F1500 E5.86535
;MESH:ctrlv_3D_test_v3.stl
G0 F3600 X-15.05 Y-43.885
G0 X-13.976 Y-43.76
G0 X6.027 Y-37.858
G0 X8.725 Y-41.013
G0 X9.916 Y-40.523
G0 X9.984 Y-37.992
;TYPE:WALL-INNER
G1 F1500 E12.36535
G1 F1800 X9.977 Y-37.983 E12.36549
G1 X9.959 Y-37.961 E12.36585
G1 X9.96 Y-37.993 E12.3659
G1 X9.995 Y-38.717 E12.37499
G1 X10.07 Y-40.24 E12.39411
G1 X10.092 Y-40.692 E12.39979
G1 X10.35 Y-40.583 E12.4033
G1 X10.856 Y-40.367 E12.4102
G1 X10.989 Y-40.31 E12.41201
G1 X10.837 Y-40.32 E12.4122
G1 X10.202 Y-40.234 E12.4169
G1 X10.125 Y-38.711 E12.42315
G1 X10.286 Y-38.71 E12.42517
G1 X10.267 Y-38.658
G1 X10.013 Y-37.982 E12.42898
G1 X10.005 Y-37.96
G1 X9.991 Y-37.981 E12.42903
G1 X9.984 Y-37.992
G0 F3600 X11.287 Y-38.658
G1 F1800 X11.401 Y-38.622 E12.43053
G1 X11.507 Y-38.509 E12.43248
G1 X11.446 Y-38.455 E12.43262
G1 X11.384 Y-38.462
G1 X11.231 Y-38.479 E12.43358
G1 X11.079 Y-38.539 E12.4356
G1 X10.651 Y-38.708 E12.44137
G1 X11.143 Y-38.704 E12.44296
G1 X11.287 Y-38.658 E12.44378
G0 F3600 X10.306 Y-38.884
G0 X10.364 Y-40.085
G0 X11.362 Y-40.11
G0 X12.41 Y-39.69
G0 X13.035 Y-38.766
G0 X12.866 Y-37.722
G0 X12.065 Y-36.152
G0 X11.279 Y-35.566
G0 X9.844 Y-35.605
G1 F1800 X9.851 Y-35.745 E12.44553
G1 X9.909 Y-35.709
G1 X10.135 Y-35.566 E12.44852
G1 X10.705 Y-35.387 E12.45601
G1 X11.262 Y-35.403 E12.463
G1 X11.317 Y-35.405 E12.46369
G1 X11.841 Y-35.654 E12.47097
G1 X12.208 Y-36.069 E12.47791
G1 X12.398 Y-36.626 E12.48529
G1 X12.362 Y-37.076 E12.49095
G1 X12.603 Y-37.189 E12.49429
G1 X13.008 Y-37.639 E12.50188
G1 X13.212 Y-38.225 E12.50967
G1 X13.195 Y-38.802 E12.5169
G1 X13.101 Y-39.025 E12.51994
G1 X12.966 Y-39.346 E12.52431
G1 X12.775 Y-39.553 E12.52784
G1 X13.011 Y-39.453 E12.52823
G1 X13.332 Y-39.317 E12.53117
G1 X15.661 Y-38.328 E12.5629
G1 X15.845 Y-38.25 E12.56541
G1 X15.923 Y-38.434 E12.56702
G1 X17.482 Y-42.108 E12.61707
G1 X34.896 Y-34.896 E12.85344
G1 X42.305 Y-17.008 E13.09624
G1 X42.306 Y-17.007 E13.09626
G1 X42.508 Y-16.517 E13.10291
G1 X42.032 Y-16.752 E13.10645
G1 X40.843 Y-17.34 E13.12308
G1 X40.529 Y-19.498 E13.15043
G1 X39.82 Y-19.729 E13.15978
G1 X38.297 Y-18.166 E13.18715
G1 X36.282 Y-18.512 E13.21279
G1 X36.144 Y-18.535 E13.21454
G1 X35.706 Y-17.932 E13.22389
G1 X35.713 Y-17.917 E13.22409
G1 X36.722 Y-16 E13.25126
G1 X35.706 Y-14.068 E13.27863
G1 X36.144 Y-13.465 E13.28798
G1 X38.297 Y-13.834 E13.31537
G1 X39.766 Y-12.326 E13.34177
G1 X36.983 Y-8.495 E13.40115
G1 X38.912 Y-4.162 E13.46063
G1 X43.629 Y-3.667 E13.52011
G1 X46.096 Y-7.063 E13.57275
G1 X46.305 Y-7.351 E13.57721
G1 X46.44 Y-7.023 E13.57971
G1 X46.441 Y-7.022 E13.57973
G1 X49.35 Y0.00 E13.67504
G1 X34.896 Y34.896 E14.14871
G1 X0.00 Y49.35 E14.62237
G1 X-33.516 Y35.466 E15.07731
G1 X-33.961 Y35.282 E15.08335
G1 X-33.516 Y35.098 E15.08659
G1 X-30.193 Y33.72 E15.13171
G1 X-30.009 Y33.644 E15.1342
G1 X-30.085 Y33.46 E15.13582
G1 X-31.617 Y29.765 E15.18598
G1 X-36.23 Y31.675 E15.24859
G1 X-49.35 Y0.00 E15.67853
G1 X-34.896 Y-34.896 E16.15219
G1 X-33.723 Y-35.382 E16.16812
G1 X-33.179 Y-34.892 E16.1773
G1 X-32.333 Y-34.272 E16.19045
G1 X-31.787 Y-33.967 E16.19829
G1 X-31.181 Y-33.806 E16.20616
G1 X-30.582 Y-34.018 E16.21413
G1 X-30.252 Y-34.549 E16.22197
G1 X-30.083 Y-35.255 E16.23107
G1 X-29.96 Y-36.251 E16.24365
G1 X-29.882 Y-36.657 E16.24884
G1 X-29.881 Y-36.658 E16.24886
G1 X-29.818 Y-36.991 E16.25311
G1 X-29.558 Y-36.773 E16.25553
G1 X-29.158 Y-36.438 E16.26207
G1 X-28.143 Y-35.379 E16.28046
G1 X-27.117 Y-34.333 E16.29884
G1 X-26.128 Y-33.607 E16.31422
G1 X-25.356 Y-33.56 E16.32392
G1 X-24.879 Y-34.163 E16.33356
G1 X-24.753 Y-35.388 E16.34901
G1 X-24.846 Y-36.894 E16.36793
G1 X-24.953 Y-38.321 E16.38587
G1 X-24.932 Y-38.902 E16.39317
G1 X-24.928 Y-39.024 E16.3947
G1 X-24.705 Y-39.117 E16.39773
G1 X-24.595 Y-39.064 E16.39926
G1 X-24.484 Y-39.009 E16.40081
G1 X-23.304 Y-38.226 E16.41857
G1 X-22.429 Y-37.854 E16.43049
G1 X-21.82 Y-37.932 E16.43819
G1 X-21.377 Y-38.309 E16.44549
G1 X-21.101 Y-39.13 E16.45635
G1 X-20.966 Y-40.234 E16.4703
G1 X-20.879 Y-40.701 E16.47625
G1 X-19.498 Y-41.273 E16.495
G1 X-19.336 Y-41.267 E16.49703
G1 X-16.775 Y-40.874 E16.52952
G1 X-15.562 Y-40.842 E16.54474
G1 X-14.956 Y-41.005 E16.55261
G1 X-14.47 Y-41.35 E16.56008
G1 X-14.022 Y-42.229 E16.57246
G1 X-13.858 Y-43.188 E16.58466
G1 X-13.806 Y-43.632 E16.59026
G1 X-13.07 Y-43.937 E16.60025
G1 X-12.081 Y-43.325 E16.61484
G1 X-11.588 Y-43.114 E16.62156
G1 X-10.886 Y-42.983 E16.63052
G1 X-10.182 Y-43.043 E16.63938
G1 X-10.047 Y-43.075 E16.64112
G1 X-8.918 Y-43.395 E16.65584
G1 X-7.887 Y-43.825 E16.66984
G1 X-6.894 Y-44.353 E16.68395
G1 X-5.938 Y-44.985 E16.69832
G1 X-5.033 Y-45.732 E16.71303
G1 X-3.376 Y-47.425 E16.74274
G1 X-2.771 Y-48.202 E16.75509
G1 X0.00 Y-49.35 E16.7927
G1 X8.28 Y-45.919 E16.9051
G1 X8.465 Y-45.843 E16.90761
G1 X8.387 Y-45.658 E16.90923
G1 X6.862 Y-42.063 E16.9582
G1 X8.474 Y-41.377 E16.98017
G1 X8.725 Y-41.271 E16.98359
G1 X8.548 Y-41.064 E16.98563
G1 X5.433 Y-37.433 E17.04562
G1 X7.087 Y-36.747 E17.06808
G1 X8.303 Y-38.193 E17.09177
G1 X8.182 Y-36.294 E17.11563
G1 X9.8 Y-35.624 E17.13691
G1 X9.844 Y-35.605
G0 F3600 X11.279 Y-35.566
G0 X18.27 Y-39.187
G0 X19.435 Y-39.347
G0 X20.99 Y-38.387
G1 F1800 X20.592 Y-38.927 E17.14532
G1 X20.087 Y-39.298 E17.15318
G1 X19.462 Y-39.508 E17.16145
G1 X18.835 Y-39.521 E17.16931
G1 X18.198 Y-39.332 E17.17765
G1 X17.645 Y-38.948 E17.18609
G1 X17.248 Y-38.417 E17.1944
G1 X17.04 Y-37.828 E17.20224
G1 X17.018 Y-37.166 E17.21054
G1 X17.206 Y-36.522 E17.21896
G1 X17.587 Y-35.975 E17.22732
G1 X18.084 Y-35.589 E17.23521
G1 X18.712 Y-35.361 E17.24359
G1 X19.381 Y-35.34 E17.25198
G1 X20.021 Y-35.53 E17.26035
G1 X20.265 Y-35.7 E17.26408
G1 X20.536 Y-35.888 E17.26822
G1 X20.574 Y-35.914 E17.26879
G1 X20.564 Y-35.849 E17.26901
G1 X20.569 Y-35.519 E17.27154
G1 X20.575 Y-35.154 E17.27612
G1 X20.774 Y-34.481 E17.28492
G1 X21.144 Y-33.885 E17.29372
G1 X21.663 Y-33.408 E17.30256
G1 X22.287 Y-33.088 E17.31135
G1 X22.974 Y-32.947 E17.32015
G1 X23.669 Y-32.993 E17.32888
G1 X24.284 Y-33.2 E17.33702
G1 X24.708 Y-33.48 E17.34339
G1 X24.864 Y-33.583 E17.34574
G1 X25.071 Y-33.819 E17.34967
G1 X25.023 Y-33.555 E17.35022
G1 X25.005 Y-33.456 E17.35113
G1 X25.012 Y-33.269 E17.35294
G1 X25.031 Y-32.772 E17.35918
G1 X25.208 Y-32.111 E17.36776
G1 X25.526 Y-31.503 E17.37636
G1 X25.972 Y-30.98 E17.38498
G1 X26.519 Y-30.568 E17.39357
G1 X27.143 Y-30.287 E17.40215
G1 X27.811 Y-30.148 E17.41071
G1 X28.497 Y-30.16 E17.41931
G1 X29.162 Y-30.322 E17.42789
G1 X29.775 Y-30.626 E17.43648
