;FLAVOR:Marlin
;TIME:11102
;Filament used: 3.45632m
;Layer height: 0.2
;MINX:-30.32
;MINY:-40.261
;MINZ:0.3
;MAXX:34.501
;MAXY:40.258
;MAXZ:51.7
;Generated with Cura_SteamEngine 4.8.0
M140 S50
M105
M190 S50
M104 S195
M105
M109 S195
M82 ;absolute extrusion mode
G28 ;Home
G1 Z15.0 F6000 ;Move the platform down 15mm
;Prime the extruder
G92 E0
G1 F200 E3
G92 E0
G1 F1500 E-6.5
;LAYER_COUNT:258
;LAYER:0
M107
G0 F3600 X-15.069 Y-19.348 Z0.3
;TYPE:SKIRT
G1 F1500 E0
G1 F1350 X-12.957 Y-21.049 E0.05101
G1 X-10.888 Y-22.815 E0.10218
G1 X-8.898 Y-24.612 E0.15262
G1 X-6.892 Y-26.53 E0.20482
G1 X-5.001 Y-28.444 E0.25543
G1 X-3.161 Y-30.416 E0.30617
G1 X-1.73 Y-32.027 E0.3467
G1 X-.215 Y-33.772 E0.39017
G1 X-.12 Y-33.877 E0.39283
G1 X0.295 Y-34.322 E0.40428
G1 X0.688 Y-34.707 E0.41463
G1 X1.113 Y-35.095 E0.42545
G1 X1.615 Y-35.537 E0.43803
G1 X1.804 Y-35.693 E0.44264
G1 X2.689 Y-36.379 E0.46371
G1 X3.166 Y-36.723 E0.47477
G1 X3.361 Y-36.854 E0.47919
G1 X4.343 Y-37.471 E0.501
G1 X4.826 Y-37.754 E0.51153
G1 X5.047 Y-37.873 E0.51626
G1 X6.069 Y-38.383 E0.53774
G1 X6.196 Y-38.444 E0.54039
G1 X6.74 Y-38.692 E0.55164
G1 X7.292 Y-38.913 E0.56282
G1 X7.936 Y-39.144 E0.57569
G1 X8.432 Y-39.313 E0.58555
G1 X8.667 Y-39.385 E0.59017
G1 X9.761 Y-39.684 E0.61151
G1 X9.909 Y-39.722 E0.61438
G1 X10.51 Y-39.862 E0.62599
G1 X11.032 Y-39.96 E0.63598
G1 X11.795 Y-40.074 E0.65049
G1 X12.499 Y-40.159 E0.66383
G1 X13.65 Y-40.24 E0.68553
G1 X14.188 Y-40.261 E0.69566
G1 X14.432 Y-40.261 E0.70025
G1 X15.616 Y-40.228 E0.72253
G1 X16.167 Y-40.196 E0.73291
G1 X16.417 Y-40.172 E0.73764
G1 X17.55 Y-40.028 E0.75912
G1 X18.11 Y-39.94 E0.76978
G1 X18.374 Y-39.889 E0.77484
G1 X19.459 Y-39.639 E0.79579
G1 X20.022 Y-39.49 E0.80674
G1 X20.255 Y-39.42 E0.81132
G1 X21.358 Y-39.051 E0.8332
G1 X21.85 Y-38.871 E0.84305
G1 X22.093 Y-38.771 E0.84799
G1 X23.279 Y-38.238 E0.87245
G1 X23.891 Y-37.928 E0.88536
G1 X24.868 Y-37.369 E0.90653
G1 X24.988 Y-37.297 E0.90916
G1 X25.532 Y-36.96 E0.9212
G1 X25.958 Y-36.67 E0.93089
G1 X26.052 Y-36.603 E0.93307
G1 X26.524 Y-36.252 E0.94413
G1 X26.974 Y-35.908 E0.95478
G1 X27.17 Y-35.748 E0.95954
G1 X27.984 Y-35.04 E0.97984
G1 X28.084 Y-34.95 E0.98237
G1 X28.559 Y-34.508 E0.99457
G1 X28.967 Y-34.091 E1.00555
G1 X29.361 Y-33.658 E1.01656
G1 X29.764 Y-33.201 E1.02802
G1 X29.925 Y-33.005 E1.03279
G1 X30.626 Y-32.1 E1.05433
G1 X30.964 Y-31.634 E1.06515
G1 X31.096 Y-31.436 E1.06963
G1 X31.704 Y-30.469 E1.09112
G1 X31.987 Y-29.986 E1.10165
G1 X32.104 Y-29.768 E1.1063
G1 X32.615 Y-28.745 E1.12781
G1 X32.862 Y-28.209 E1.13891
G1 X32.956 Y-27.984 E1.1435
G1 X33.358 Y-26.933 E1.16467
G1 X33.548 Y-26.383 E1.17561
G1 X33.622 Y-26.142 E1.18035
G1 X33.921 Y-25.044 E1.20176
G1 X34.053 Y-24.497 E1.21235
G1 X34.105 Y-24.244 E1.2172
G1 X34.295 Y-23.124 E1.23857
G1 X34.373 Y-22.557 E1.24934
G1 X34.399 Y-22.302 E1.25416
G1 X34.479 Y-21.155 E1.27579
G1 X34.501 Y-20.616 E1.28594
G1 X34.501 Y-20.362 E1.29071
G1 X34.467 Y-19.172 E1.31311
G1 X34.436 Y-18.639 E1.32315
G1 X34.412 Y-18.387 E1.32791
G1 X34.268 Y-17.255 E1.34938
G1 X34.185 Y-16.718 E1.3596
G1 X34.132 Y-16.446 E1.36481
G1 X33.868 Y-15.299 E1.38695
G1 X33.733 Y-14.784 E1.39697
G1 X33.663 Y-14.551 E1.40154
G1 X33.305 Y-13.48 E1.42278
G1 X33.116 Y-12.968 E1.43305
G1 X32.203 Y-10.422 E1.48393
G1 X31.356 Y-7.828 E1.53526
G1 X30.584 Y-5.22 E1.58642
G1 X29.889 Y-2.599 E1.63743
G1 X29.268 Y0.037 E1.68837
G1 X28.717 Y2.728 E1.74004
G1 X28.25 Y5.376 E1.79062
G1 X27.854 Y8.066 E1.84176
G1 X27.537 Y10.743 E1.89247
G1 X27.291 Y13.481 E1.94418
G1 X27.126 Y16.161 E1.99469
G1 X27.029 Y19.362 E2.05493
G1 X27.027 Y19.501 E2.05754
G1 X26.979 Y20.064 E2.06817
G1 X26.852 Y20.615 E2.07881
G1 X26.648 Y21.142 E2.08944
G1 X26.372 Y21.636 E2.10008
G1 X26.03 Y22.085 E2.1107
G1 X25.627 Y22.482 E2.12134
G1 X25.073 Y22.88 E2.13417
G1 X24.412 Y23.273 E2.14864
G1 X1.75 Y36.356 E2.64086
G1 X1.117 Y36.708 E2.65449
G1 X0.615 Y36.943 E2.66491
G1 X-.589 Y37.408 E2.68919
G1 X-3.157 Y38.441 E2.74126
G1 X-5.648 Y39.526 E2.79237
G1 X-6.341 Y39.846 E2.80672
G1 X-6.859 Y40.046 E2.81717
G1 X-7.405 Y40.191 E2.8278
G1 X-7.966 Y40.258 E2.83842
G1 X-8.532 Y40.244 E2.84907
G1 X-9.089 Y40.152 E2.85969
G1 X-9.628 Y39.981 E2.87033
G1 X-10.315 Y39.643 E2.88473
G1 X-11.2 Y39.134 E2.90394
G1 X-11.825 Y38.763 E2.91761
G1 X-12.29 Y38.441 E2.92825
G1 X-12.704 Y38.057 E2.93887
G1 X-12.927 Y37.794 E2.94536
G1 X-13.365 Y37.237 E2.95868
G1 X-14.226 Y36.106 E2.98542
G1 X-15.945 Y33.976 E3.03691
G1 X-17.689 Y31.936 E3.08739
G1 X-19.517 Y29.918 E3.13861
G1 X-21.405 Y27.946 E3.18997
G1 X-23.329 Y26.05 E3.24078
G1 X-25.334 Y24.18 E3.29235
G1 X-27.229 Y22.513 E3.33983
G1 X-27.367 Y22.386 E3.34335
G1 X-27.755 Y21.975 E3.35399
G1 X-28.081 Y21.513 E3.36462
G1 X-28.338 Y21.01 E3.37525
G1 X-28.522 Y20.475 E3.38589
G1 X-28.629 Y19.92 E3.39652
G1 X-28.658 Y19.501 E3.40442
G1 X-28.669 Y18.682 E3.41983
G1 X-28.668 Y-7.447 E3.91133
G1 X-28.658 Y-8.146 E3.92448
G1 X-28.61 Y-8.71 E3.93513
G1 X-28.483 Y-9.26 E3.94575
G1 X-28.279 Y-9.788 E3.95639
G1 X-28.004 Y-10.281 E3.96701
G1 X-27.661 Y-10.731 E3.97766
G1 X-27.259 Y-11.128 E3.98828
G1 X-26.707 Y-11.524 E4.00106
G1 X-23.994 Y-13.144 E4.0605
G1 X-21.695 Y-14.602 E4.11171
G1 X-19.426 Y-16.131 E4.16318
G1 X-17.238 Y-17.699 E4.21381
G1 X-15.069 Y-19.348 E4.26507
G0 F3600 X-14.839 Y-19.02
G1 F1350 X-12.692 Y-20.749 E4.31692
G1 X-10.623 Y-22.515 E4.36809
G1 X-8.618 Y-24.326 E4.41891
G1 X-6.632 Y-26.226 E4.47061
G1 X-4.708 Y-28.173 E4.5221
G1 X-2.867 Y-30.145 E4.57285
G1 X-1.43 Y-31.762 E4.61354
G1 X0.087 Y-33.509 E4.65706
G1 X0.172 Y-33.604 E4.65946
G1 X0.587 Y-34.049 E4.67091
G1 X0.965 Y-34.419 E4.68086
G1 X1.382 Y-34.799 E4.69147
G1 X1.879 Y-35.236 E4.70392
G1 X2.049 Y-35.377 E4.70807
G1 X2.934 Y-36.063 E4.72913
G1 X3.398 Y-36.398 E4.7399
G1 X3.574 Y-36.515 E4.74387
G1 X4.556 Y-37.132 E4.76569
G1 X5.027 Y-37.408 E4.77596
G1 X5.226 Y-37.515 E4.78021
G1 X6.248 Y-38.025 E4.80169
G1 X6.362 Y-38.08 E4.80407
G1 X6.906 Y-38.328 E4.81532
G1 X7.436 Y-38.539 E4.82605
G1 X7.52 Y-38.571 E4.82774
G1 X8.065 Y-38.766 E4.83863
G1 X8.561 Y-38.935 E4.84849
G1 X8.773 Y-39 E4.85266
G1 X9.867 Y-39.299 E4.87399
G1 X9.999 Y-39.332 E4.87655
G1 X10.6 Y-39.472 E4.88816
G1 X11.102 Y-39.566 E4.89777
G1 X11.208 Y-39.584 E4.89979
G1 X11.847 Y-39.677 E4.91194
G1 X12.527 Y-39.76 E4.92482
G1 X13.678 Y-39.841 E4.94653
G1 X14.201 Y-39.861 E4.95637
G1 X14.421 Y-39.862 E4.96051
G1 X15.605 Y-39.829 E4.98279
G1 X16.142 Y-39.797 E4.99291
G1 X16.367 Y-39.775 E4.99716
G1 X17.616 Y-39.615 E5.02085
G1 X18.284 Y-39.499 E5.0336
G1 X19.369 Y-39.249 E5.05455
G1 X19.919 Y-39.104 E5.06524
G1 X20.128 Y-39.041 E5.06935
G1 X21.231 Y-38.672 E5.09123
G1 X21.711 Y-38.496 E5.10085
G1 X21.93 Y-38.406 E5.1053
G1 X22.988 Y-37.932 E5.12711
G1 X23.492 Y-37.687 E5.13765
G1 X23.693 Y-37.581 E5.14192
G1 X24.67 Y-37.022 E5.1631
G1 X25.322 Y-36.62 E5.17751
G1 X25.814 Y-36.282 E5.18873
G1 X26.281 Y-35.934 E5.19969
G1 X26.731 Y-35.59 E5.21034
G1 X26.908 Y-35.446 E5.21464
G1 X27.722 Y-34.738 E5.23493
G1 X28.286 Y-34.215 E5.2494
G1 X28.678 Y-33.815 E5.25993
G1 X29.064 Y-33.39 E5.27073
G1 X29.464 Y-32.937 E5.2821
G1 X29.609 Y-32.761 E5.28639
G1 X30.31 Y-31.856 E5.30792
G1 X30.638 Y-31.401 E5.31847
G1 X30.758 Y-31.223 E5.32251
G1 X31.366 Y-30.256 E5.344
G1 X31.641 Y-29.786 E5.35424
G1 X31.747 Y-29.59 E5.35843
G1 X32.258 Y-28.567 E5.37994
G1 X32.498 Y-28.043 E5.39078
G1 X32.582 Y-27.841 E5.3949
G1 X32.984 Y-26.79 E5.41607
G1 X33.17 Y-26.254 E5.42674
G1 X33.237 Y-26.037 E5.43101
G1 X33.536 Y-24.939 E5.45242
G1 X33.664 Y-24.405 E5.46275
G1 X33.71 Y-24.177 E5.46712
G1 X33.9 Y-23.057 E5.48849
G1 X33.977 Y-22.504 E5.49899
G1 X34 Y-22.274 E5.50334
G1 X34.08 Y-21.127 E5.52497
G1 X34.101 Y-20.602 E5.53485
G1 X34.102 Y-20.373 E5.53916
G1 X34.068 Y-19.183 E5.56155
G1 X34.037 Y-18.664 E5.57133
G1 X34.015 Y-18.438 E5.5756
G1 X33.856 Y-17.197 E5.59914
G1 X33.742 Y-16.536 E5.61176
G1 X33.478 Y-15.389 E5.6339
G1 X33.346 Y-14.887 E5.64366
G1 X33.283 Y-14.678 E5.64777
G1 X32.925 Y-13.607 E5.66901
G1 X32.758 Y-13.153 E5.67811
G1 X31.815 Y-10.522 E5.73068
G1 X30.979 Y-7.962 E5.78134
G1 X30.203 Y-5.34 E5.83278
G1 X29.497 Y-2.679 E5.88456
G1 X28.875 Y-0.038 E5.9356
G1 X28.324 Y2.651 E5.98723
G1 X27.86 Y5.286 E6.03756
G1 X27.455 Y8.033 E6.08979
G1 X27.14 Y10.697 E6.14025
G1 X26.892 Y13.456 E6.19236
G1 X26.726 Y16.155 E6.24323
G1 X26.623 Y19.532 E6.30678
G1 X26.579 Y20.029 E6.31616
G1 X26.453 Y20.55 E6.32625
G1 X26.25 Y21.047 E6.33635
G1 X25.976 Y21.508 E6.34643
G1 X25.637 Y21.923 E6.35651
G1 X25.239 Y22.283 E6.36661
G1 X24.868 Y22.537 E6.37507
G1 X24.212 Y22.927 E6.38942
G1 X1.556 Y36.006 E6.88151
G1 X0.923 Y36.358 E6.89513
G1 X0.471 Y36.57 E6.90452
G1 X-.734 Y37.036 E6.92883
G1 X-3.317 Y38.075 E6.9812
G1 X-5.813 Y39.162 E7.03241
G1 X-6.509 Y39.483 E7.04683
G1 X-6.988 Y39.667 E7.05648
G1 X-7.507 Y39.803 E7.06657
G1 X-8.041 Y39.86 E7.07667
G1 X-8.576 Y39.837 E7.08674
G1 X-9.103 Y39.735 E7.09684
G1 X-9.608 Y39.556 E7.10692
G1 X-10.125 Y39.29 E7.11786
G1 X-10.219 Y39.239 E7.11987
G1 X-11.04 Y38.764 E7.13771
G1 X-11.621 Y38.419 E7.15042
G1 X-12.061 Y38.112 E7.16051
G1 X-12.449 Y37.743 E7.17059
G1 X-12.613 Y37.547 E7.17539
G1 X-13.047 Y36.995 E7.1886
G1 X-13.925 Y35.841 E7.21588
G1 X-15.631 Y33.727 E7.26698
G1 X-17.388 Y31.673 E7.31782
G1 X-19.232 Y29.636 E7.36951
G1 X-21.118 Y27.667 E7.42079
G1 X-23.058 Y25.755 E7.47203
G1 X-25.044 Y23.903 E7.52311
G1 X-26.958 Y22.219 E7.57107
G1 X-27.096 Y22.092 E7.57459
G1 X-27.462 Y21.7 E7.58468
G1 X-27.767 Y21.259 E7.59477
G1 X-28.002 Y20.777 E7.60485
G1 X-28.163 Y20.265 E7.61495
G1 X-28.258 Y19.495 E7.62954
G1 X-28.269 Y18.682 E7.64484
G1 X-28.268 Y-7.441 E8.13623
G1 X-28.258 Y-8.14 E8.14938
G1 X-28.21 Y-8.675 E8.15948
G1 X-28.084 Y-9.196 E8.16956
G1 X-27.881 Y-9.692 E8.17964
G1 X-27.607 Y-10.153 E8.18973
G1 X-27.268 Y-10.569 E8.19983
G1 X-26.87 Y-10.929 E8.20992
G1 X-26.502 Y-11.181 E8.21831
G1 X-23.786 Y-12.803 E8.27782
G1 X-21.462 Y-14.276 E8.32958
G1 X-19.215 Y-15.791 E8.38055
G1 X-16.991 Y-17.384 E8.43201
G1 X-14.839 Y-19.02 E8.48286
G0 F3600 X-14.569 Y-18.723
G1 F1350 X-12.447 Y-20.432 E8.53411
G1 X-10.379 Y-22.197 E8.58526
G1 X-8.338 Y-24.041 E8.637
G1 X-6.336 Y-25.956 E8.68911
G1 X-4.413 Y-27.901 E8.74056
G1 X-2.582 Y-29.863 E8.79104
G1 X-1.132 Y-31.496 E8.83212
G1 X0.389 Y-33.247 E8.87575
G1 X0.465 Y-33.331 E8.87788
G1 X0.88 Y-33.776 E8.88932
G1 X1.241 Y-34.13 E8.89884
G1 X1.69 Y-34.538 E8.91025
G1 X2.143 Y-34.936 E8.92159
G1 X2.295 Y-35.061 E8.92529
G1 X3.18 Y-35.747 E8.94635
G1 X3.63 Y-36.072 E8.9568
G1 X3.787 Y-36.177 E8.96035
G1 X4.769 Y-36.794 E8.98216
G1 X5.227 Y-37.062 E8.99215
G1 X5.404 Y-37.157 E8.99593
G1 X6.426 Y-37.667 E9.01741
G1 X6.528 Y-37.716 E9.01954
G1 X7.072 Y-37.964 E9.03079
G1 X7.58 Y-38.166 E9.04107
G1 X8.194 Y-38.387 E9.05334
G1 X8.69 Y-38.556 E9.0632
G1 X8.878 Y-38.614 E9.0669
G1 X9.972 Y-38.913 E9.08823
G1 X10.09 Y-38.943 E9.09053
G1 X10.691 Y-39.083 E9.10213
G1 X11.267 Y-39.188 E9.11315
G1 X11.899 Y-39.281 E9.12516
G1 X12.555 Y-39.361 E9.13759
G1 X13.706 Y-39.442 E9.1593
G1 X14.214 Y-39.461 E9.16886
G1 X14.41 Y-39.462 E9.17255
G1 X15.594 Y-39.429 E9.19483
G1 X16.117 Y-39.398 E9.20468
G1 X16.316 Y-39.378 E9.20845
G1 X17.553 Y-39.22 E9.2319
G1 X18.195 Y-39.109 E9.24416
G1 X19.28 Y-38.859 E9.2651
G1 X19.815 Y-38.718 E9.27551
G1 X20.001 Y-38.662 E9.27916
G1 X21.104 Y-38.293 E9.30104
G1 X21.766 Y-38.041 E9.31437
G1 X22.824 Y-37.567 E9.33617
G1 X23.315 Y-37.328 E9.34645
G1 X23.494 Y-37.234 E9.35025
G1 X24.471 Y-36.675 E9.37142
G1 X25.111 Y-36.28 E9.38557
G1 X25.575 Y-35.96 E9.39617
G1 X26.038 Y-35.616 E9.40702
G1 X26.488 Y-35.272 E9.41768
G1 X26.645 Y-35.144 E9.42149
G1 X27.539 Y-34.365 E9.44379
G1 X28.014 Y-33.923 E9.456
G1 X28.389 Y-33.538 E9.46611
G1 X28.767 Y-33.122 E9.47668
G1 X29.163 Y-32.672 E9.48796
G1 X29.293 Y-32.516 E9.49178
G1 X29.994 Y-31.611 E9.51331
G1 X30.313 Y-31.168 E9.52358
G1 X30.419 Y-31.01 E9.52716
G1 X31.027 Y-30.043 E9.54864
G1 X31.295 Y-29.585 E9.55863
G1 X31.389 Y-29.411 E9.56235
G1 X31.9 Y-28.388 E9.58386
G1 X32.134 Y-27.878 E9.59441
G1 X32.209 Y-27.698 E9.59808
G1 X32.611 Y-26.647 E9.61925
G1 X32.791 Y-26.125 E9.62963
G1 X32.851 Y-25.932 E9.63343
G1 X33.15 Y-24.834 E9.65484
G1 X33.275 Y-24.312 E9.66494
G1 X33.316 Y-24.11 E9.66881
G1 X33.506 Y-22.99 E9.69018
G1 X33.58 Y-22.451 E9.70042
G1 X33.601 Y-22.247 E9.70427
G1 X33.681 Y-21.1 E9.7259
G1 X33.701 Y-20.588 E9.73554
G1 X33.702 Y-20.385 E9.73936
G1 X33.668 Y-19.195 E9.76175
G1 X33.638 Y-18.689 E9.77129
G1 X33.618 Y-18.488 E9.77509
G1 X33.461 Y-17.26 E9.79837
G1 X33.352 Y-16.625 E9.81049
G1 X33.088 Y-15.478 E9.83263
G1 X32.96 Y-14.991 E9.84211
G1 X32.904 Y-14.805 E9.84576
G1 X32.509 Y-13.628 E9.86911
G1 X32.367 Y-13.248 E9.87674
G1 X31.445 Y-10.676 E9.92814
G1 X30.591 Y-8.061 E9.97989
G1 X29.815 Y-5.441 E10.03129
G1 X29.118 Y-2.81 E10.08248
G1 X28.479 Y-0.097 E10.13491
G1 X27.932 Y2.572 E10.18616
G1 X27.464 Y5.229 E10.23691
G1 X27.061 Y7.959 E10.28882
G1 X26.739 Y10.686 E10.34047
G1 X26.496 Y13.394 E10.39162
G1 X26.328 Y16.12 E10.44299
G1 X26.224 Y19.514 E10.50686
G1 X26.179 Y19.992 E10.5159
G1 X26.054 Y20.482 E10.52541
G1 X25.852 Y20.946 E10.53493
G1 X25.58 Y21.372 E10.54443
G1 X25.245 Y21.75 E10.55394
G1 X24.664 Y22.193 E10.56768
G1 X24.012 Y22.58 E10.58194
G1 X1.361 Y35.657 E11.07393
G1 X0.728 Y36.009 E11.08755
G1 X0.326 Y36.197 E11.0959
G1 X-.87 Y36.659 E11.12002
G1 X-3.447 Y37.696 E11.17227
G1 X-5.982 Y38.8 E11.22428
G1 X-6.676 Y39.12 E11.23866
G1 X-7.118 Y39.289 E11.24756
G1 X-7.608 Y39.415 E11.25707
G1 X-8.111 Y39.462 E11.26658
G1 X-8.616 Y39.429 E11.2761
G1 X-9.109 Y39.317 E11.28561
G1 X-9.672 Y39.08 E11.2971
G1 X-10.019 Y38.892 E11.30452
G1 X-10.836 Y38.42 E11.32227
G1 X-11.417 Y38.075 E11.33498
G1 X-11.83 Y37.784 E11.34448
G1 X-12.192 Y37.431 E11.354
G1 X-12.729 Y36.753 E11.37026
G1 X-13.612 Y35.593 E11.39769
G1 X-15.332 Y33.462 E11.4492
G1 X-17.088 Y31.408 E11.50003
G1 X-18.93 Y29.374 E11.55165
G1 X-20.831 Y27.389 E11.60335
G1 X-22.787 Y25.461 E11.65501
G1 X-24.792 Y23.592 E11.70657
G1 X-26.687 Y21.925 E11.75405
G1 X-26.825 Y21.798 E11.75758
G1 X-27.169 Y21.427 E11.76709
G1 X-27.45 Y21.007 E11.7766
G1 X-27.661 Y20.548 E11.7861
G1 X-27.798 Y20.061 E11.79562
G1 X-27.858 Y19.489 E11.80644
G1 X-27.869 Y18.682 E11.82162
G1 X-27.868 Y-7.436 E12.31291
G1 X-27.858 Y-8.135 E12.32606
G1 X-27.811 Y-8.638 E12.33557
G1 X-27.685 Y-9.128 E12.34508
G1 X-27.483 Y-9.592 E12.3546
G1 X-27.211 Y-10.018 E12.36411
G1 X-26.876 Y-10.396 E12.37361
G1 X-26.297 Y-10.837 E12.3873
G1 X-23.562 Y-12.471 E12.44723
G1 X-21.247 Y-13.939 E12.49879
G1 X-18.988 Y-15.461 E12.55003
G1 X-16.762 Y-17.057 E12.60155
G1 X-14.569 Y-18.723 E12.65336
G1 F1500 E6.15336
;MESH:Hexagon_Tower_Pot_update.stl
G0 F3600 X-12.825 Y-15.7
G0 X-12.192 Y-14.605
G0 X-5.231 Y29.897
G0 X-5.206 Y29.993
;TYPE:WALL-INNER
G1 F1500 E12.65336
G1 F1350 X-8.363 Y35.461 E12.77213
G1 X-9.345 Y34.895 E12.79345
G1 X-15.277 Y24.177 E13.02388
G1 X-24.069 Y19.102 E13.21484
G1 X-24.068 Y-7.749 E13.71992
G1 X-.837 Y-21.162 E14.22451
G1 X-.804 Y-21.791 E14.23636
G1 X-.581 Y-23.295 E14.26496
G1 X-.218 Y-24.745 E14.29308
G1 X0.293 Y-26.174 E14.32163
G1 X0.937 Y-27.532 E14.3499
G1 X1.726 Y-28.849 E14.37878
G1 X2.617 Y-30.05 E14.40691
G1 X3.638 Y-31.176 E14.4355
G1 X4.75 Y-32.183 E14.46372
G1 X5.962 Y-33.082 E14.4921
G1 X7.263 Y-33.86 E14.52062
G1 X8.634 Y-34.509 E14.54915
G1 X10.058 Y-35.018 E14.5776
G1 X11.512 Y-35.383 E14.6058
G1 X13.015 Y-35.604 E14.63437
G1 X14.52 Y-35.679 E14.66272
G1 X16.041 Y-35.603 E14.69136
G1 X17.538 Y-35.38 E14.71983
G1 X18.991 Y-35.016 E14.74801
