;FLAVOR:Marlin
;TIME:3056
;Filament used: 0.938957m
;Layer height: 0.2
;MINX:-53.986
;MINY:-53.985
;MINZ:0.3
;MAXX:53.985
;MAXY:53.979
;MAXZ:23.1
;Generated with Cura_SteamEngine 4.8.0
M104 S195
M105
M109 S195
M82 ;absolute extrusion mode
G28 ;Home
G1 Z15.0 F6000 ;Move the platform down 15mm
;Prime the extruder
G92 E0
G1 F200 E3
G92 E0
G92 E0
G92 E0
G1 F1500 E-6.5
;LAYER_COUNT:116
;LAYER:0
M107
G0 F3600 X-19.469 Y-46.219 Z0.3
;TYPE:SKIRT
G1 F1500 E0
G1 F1800 X-16.277 Y-47.554 E0.06508
G1 X-15.108 Y-48.068 E0.0891
G1 X-14.971 Y-48.125 E0.0919
G1 X-14.36 Y-48.366 E0.10425
G1 X-13.303 Y-48.753 E0.12542
G1 X-10.72 Y-49.739 E0.17743
G1 X-8.181 Y-50.792 E0.22914
G1 X-5.179 Y-52.148 E0.2911
G1 X-4.897 Y-52.28 E0.29696
G1 X-3.843 Y-52.737 E0.31857
G1 X-2.152 Y-53.438 E0.353
G1 X-1.482 Y-53.705 E0.36657
G1 X-.943 Y-53.876 E0.3772
G1 X-.386 Y-53.97 E0.38783
G1 X0.179 Y-53.985 E0.39846
G1 X0.741 Y-53.92 E0.4091
G1 X1.375 Y-53.745 E0.42147
G1 X2.041 Y-53.484 E0.43493
G1 X10.641 Y-49.923 E0.61002
G1 X11.175 Y-49.709 E0.62084
G1 X11.52 Y-49.558 E0.62793
G1 X12.222 Y-49.267 E0.64222
G1 X12.319 Y-49.235 E0.64414
G1 X12.873 Y-49.006 E0.65542
G1 X12.969 Y-48.958 E0.65744
G1 X13.627 Y-48.685 E0.67084
G1 X14.272 Y-48.421 E0.68395
G1 X15.05 Y-48.096 E0.69981
G1 X15.54 Y-47.893 E0.70978
G1 X16.269 Y-47.591 E0.72463
G1 X16.749 Y-47.391 E0.73441
G1 X17.413 Y-47.117 E0.74792
G1 X17.859 Y-46.932 E0.757
G1 X36.259 Y-39.311 E1.13163
G1 X36.918 Y-39.027 E1.14513
G1 X37.42 Y-38.768 E1.15575
G1 X37.881 Y-38.44 E1.1664
G1 X38.29 Y-38.051 E1.17701
G1 X38.641 Y-37.607 E1.18766
G1 X38.919 Y-37.134 E1.19798
G1 X39.224 Y-36.466 E1.21179
G1 X53.433 Y-2.165 E1.91018
G1 X53.705 Y-1.48 E1.92405
G1 X53.877 Y-.942 E1.93467
G1 X53.971 Y-.384 E1.94532
G1 X53.985 Y0.181 E1.95595
G1 X53.919 Y0.742 E1.96657
G1 X53.74 Y1.387 E1.97917
G1 X53.512 Y1.975 E1.99103
G1 X39.296 Y36.291 E2.68973
G1 X39.022 Y36.928 E2.70277
G1 X38.763 Y37.43 E2.7134
G1 X38.435 Y37.89 E2.72403
G1 X38.046 Y38.3 E2.73466
G1 X37.603 Y38.651 E2.74529
G1 X37.003 Y38.988 E2.75823
G1 X36.413 Y39.246 E2.77035
G1 X2.165 Y53.433 E3.46766
G1 X1.501 Y53.698 E3.4811
G1 X0.963 Y53.87 E3.49173
G1 X0.406 Y53.964 E3.50235
G1 X-.16 Y53.979 E3.51301
G1 X-.721 Y53.914 E3.52363
G1 X-1.296 Y53.765 E3.5348
G1 X-1.975 Y53.512 E3.54843
G1 X-36.308 Y39.29 E4.24747
G1 X-36.93 Y39.022 E4.26021
G1 X-37.432 Y38.762 E4.27085
G1 X-37.892 Y38.434 E4.28147
G1 X-38.302 Y38.044 E4.29212
G1 X-38.652 Y37.6 E4.30275
G1 X-39.05 Y36.86 E4.31856
G1 X-39.175 Y36.553 E4.32479
G1 X-39.944 Y34.751 E4.36165
G1 X-40.033 Y34.495 E4.36675
G1 X-40.428 Y33.565 E4.38575
G1 X-53.43 Y2.172 E5.02492
G1 X-53.705 Y1.483 E5.03887
G1 X-53.877 Y0.944 E5.04951
G1 X-53.971 Y0.387 E5.06014
G1 X-53.986 Y-.178 E5.07077
G1 X-53.921 Y-.74 E5.08141
G1 X-53.734 Y-1.407 E5.09444
G1 X-53.516 Y-1.965 E5.10571
G1 X-39.313 Y-36.255 E5.80387
G1 X-39.02 Y-36.933 E5.81776
G1 X-38.76 Y-37.435 E5.82839
G1 X-38.432 Y-37.895 E5.83902
G1 X-38.042 Y-38.304 E5.84965
G1 X-37.598 Y-38.654 E5.86029
G1 X-36.997 Y-38.991 E5.87325
G1 X-36.434 Y-39.237 E5.88481
G1 X-35.744 Y-39.523 E5.89886
G1 X-34.47 Y-40.031 E5.92466
G1 X-31.55 Y-41.249 E5.98417
G1 X-31.312 Y-41.35 E5.98903
G1 X-30.161 Y-41.807 E6.01233
G1 X-27.05 Y-43.106 E6.07574
G1 X-26.53 Y-43.333 E6.08642
G1 X-25.967 Y-43.56 E6.09784
G1 X-23.672 Y-44.507 E6.14454
G1 X-22.377 Y-45.06 E6.17102
G1 X-21.744 Y-45.323 E6.18392
G1 X-19.995 Y-46.017 E6.21931
G1 X-19.469 Y-46.219 E6.22991
G0 F3600 X-19.325 Y-45.845
G1 F1800 X-16.118 Y-47.186 E6.2953
G1 X-14.946 Y-47.702 E6.31939
G1 X-14.824 Y-47.754 E6.32188
G1 X-14.223 Y-47.991 E6.33403
G1 X-13.114 Y-48.397 E6.35625
G1 X-10.56 Y-49.372 E6.40767
G1 X-8.067 Y-50.406 E6.45844
G1 X-5.001 Y-51.79 E6.52172
G1 X-4.738 Y-51.913 E6.52718
G1 X-3.69 Y-52.367 E6.54866
G1 X-2.004 Y-53.066 E6.583
G1 X-1.334 Y-53.333 E6.59656
G1 X-.822 Y-53.494 E6.60666
G1 X-.292 Y-53.577 E6.61675
G1 X0.244 Y-53.581 E6.62683
G1 X0.775 Y-53.504 E6.63692
G1 X1.369 Y-53.321 E6.64862
G1 X1.892 Y-53.113 E6.6592
G1 X10.55 Y-49.528 E6.83548
G1 X11.021 Y-49.34 E6.84501
G1 X11.36 Y-49.191 E6.85198
G1 X12.1 Y-48.884 E6.86705
G1 X12.166 Y-48.865 E6.86834
G1 X12.72 Y-48.636 E6.87962
G1 X12.813 Y-48.589 E6.88158
G1 X13.523 Y-48.295 E6.89603
G1 X14.136 Y-48.044 E6.90849
G1 X14.849 Y-47.746 E6.92303
G1 X15.326 Y-47.555 E6.9327
G1 X15.396 Y-47.52 E6.93417
G1 X16.143 Y-47.21 E6.94938
G1 X16.585 Y-47.027 E6.95838
G1 X17.168 Y-46.786 E6.97025
G1 X17.694 Y-46.567 E6.98096
G1 X36.151 Y-38.922 E7.35675
G1 X36.76 Y-38.66 E7.36923
G1 X37.235 Y-38.412 E7.37931
G1 X37.669 Y-38.096 E7.3894
G1 X38.05 Y-37.719 E7.39949
G1 X38.372 Y-37.29 E7.40958
G1 X38.648 Y-36.781 E7.42047
G1 X38.857 Y-36.308 E7.43019
G1 X53.082 Y-1.966 E8.12941
G1 X53.334 Y-1.333 E8.14223
G1 X53.494 Y-.821 E8.15232
G1 X53.577 Y-.291 E8.16241
G1 X53.581 Y0.245 E8.17249
G1 X53.504 Y0.776 E8.18259
G1 X53.308 Y1.403 E8.19494
G1 X53.123 Y1.869 E8.20437
G1 X38.929 Y36.132 E8.90199
G1 X38.655 Y36.769 E8.91504
G1 X38.407 Y37.245 E8.92513
G1 X38.091 Y37.678 E8.93522
G1 X37.714 Y38.06 E8.94531
G1 X37.285 Y38.381 E8.95539
G1 X36.838 Y38.624 E8.96496
G1 X36.256 Y38.878 E8.97691
G1 X2.012 Y53.063 E9.67413
G1 X1.353 Y53.326 E9.68748
G1 X0.842 Y53.488 E9.69756
G1 X0.312 Y53.571 E9.70766
G1 X-.224 Y53.575 E9.71774
G1 X-1.011 Y53.433 E9.73278
G1 X-1.488 Y53.275 E9.74223
G1 X-1.869 Y53.123 E9.74995
G1 X-36.15 Y38.922 E10.44793
G1 X-36.772 Y38.654 E10.46067
G1 X-37.247 Y38.406 E10.47075
G1 X-37.68 Y38.09 E10.48084
G1 X-38.061 Y37.713 E10.49092
G1 X-38.383 Y37.283 E10.50102
G1 X-38.68 Y36.709 E10.51318
G1 X-38.829 Y36.344 E10.5206
G1 X-39.576 Y34.594 E10.55639
G1 X-39.655 Y34.361 E10.56102
G1 X-40.058 Y33.412 E10.58041
G1 X-53.059 Y2.023 E11.2195
G1 X-53.334 Y1.334 E11.23345
G1 X-53.495 Y0.823 E11.24353
G1 X-53.578 Y0.293 E11.25362
G1 X-53.582 Y-.243 E11.26371
G1 X-53.506 Y-.774 E11.2738
G1 X-53.36 Y-1.266 E11.28345
G1 X-53.145 Y-1.816 E11.29456
G1 X-38.922 Y-36.151 E11.99364
G1 X-38.653 Y-36.774 E12.0064
G1 X-38.404 Y-37.249 E12.01649
G1 X-38.088 Y-37.682 E12.02658
G1 X-37.711 Y-38.063 E12.03666
G1 X-37.281 Y-38.384 E12.04675
G1 X-36.832 Y-38.627 E12.05635
G1 X-36.277 Y-38.869 E12.06774
G1 X-35.639 Y-39.134 E12.08074
G1 X-34.342 Y-39.651 E12.107
G1 X-31.376 Y-40.888 E12.16745
G1 X-31.164 Y-40.978 E12.17179
G1 X-30.044 Y-41.423 E12.19446
G1 X-26.84 Y-42.76 E12.25976
G1 X-26.262 Y-43.011 E12.27161
G1 X-25.814 Y-43.19 E12.28069
G1 X-23.519 Y-44.137 E12.32739
G1 X-22.186 Y-44.707 E12.35466
G1 X-21.597 Y-44.951 E12.36665
G1 X-19.852 Y-45.643 E12.40197
G1 X-19.325 Y-45.845 E12.41258
G0 F3600 X-19.165 Y-45.479
G1 F1800 X-15.956 Y-46.821 E12.47801
G1 X-14.785 Y-47.336 E12.50207
G1 X-14.676 Y-47.382 E12.5043
G1 X-14.085 Y-47.615 E12.51625
G1 X-13.018 Y-48.006 E12.53763
G1 X-10.412 Y-49 E12.59009
G1 X-7.876 Y-50.053 E12.64174
G1 X-4.822 Y-51.432 E12.70477
G1 X-4.578 Y-51.546 E12.70984
G1 X-3.537 Y-51.998 E12.73119
G1 X-1.856 Y-52.695 E12.76542
G1 X-1.186 Y-52.962 E12.77899
G1 X-.703 Y-53.111 E12.78849
G1 X-.202 Y-53.183 E12.79802
G1 X0.303 Y-53.174 E12.80752
G1 X0.801 Y-53.087 E12.81703
G1 X1.322 Y-52.911 E12.82737
G1 X1.775 Y-52.729 E12.83655
G1 X10.431 Y-49.144 E13.01279
G1 X11.15 Y-48.851 E13.02739
G1 X11.203 Y-48.824 E13.02851
G1 X11.913 Y-48.529 E13.04298
G1 X12.013 Y-48.495 E13.04496
G1 X12.567 Y-48.266 E13.05624
G1 X12.649 Y-48.225 E13.05796
G1 X13.313 Y-47.949 E13.07149
G1 X13.961 Y-47.684 E13.08466
G1 X14.744 Y-47.357 E13.10062
G1 X15.232 Y-47.155 E13.11056
G1 X15.954 Y-46.856 E13.12526
G1 X16.431 Y-46.657 E13.13498
G1 X17.105 Y-46.379 E13.14869
G1 X17.537 Y-46.199 E13.1575
G1 X35.993 Y-38.555 E13.53326
G1 X36.602 Y-38.293 E13.54573
G1 X37.049 Y-38.057 E13.55524
G1 X37.453 Y-37.753 E13.56475
G1 X37.805 Y-37.39 E13.57426
G1 X38.202 Y-36.778 E13.58798
G1 X38.489 Y-36.15 E13.60097
G1 X52.71 Y-1.818 E14.29999
G1 X52.962 Y-1.185 E14.3128
G1 X53.111 Y-.702 E14.32231
G1 X53.183 Y-.201 E14.33183
G1 X53.174 Y0.304 E14.34133
G1 X53.087 Y0.802 E14.35084
G1 X52.904 Y1.34 E14.36153
G1 X52.753 Y1.716 E14.36915
G1 X38.562 Y35.974 E15.06667
G1 X38.288 Y36.611 E15.07971
G1 X38.052 Y37.059 E15.08924
G1 X37.748 Y37.463 E15.09875
G1 X37.385 Y37.815 E15.10826
G1 X36.971 Y38.105 E15.11777
G1 X36.518 Y38.33 E15.12728
G1 X36.064 Y38.525 E15.13657
G1 X1.821 Y52.709 E15.83378
G1 X1.205 Y52.955 E15.84625
G1 X0.722 Y53.105 E15.85577
G1 X0.221 Y53.177 E15.86529
G1 X-.284 Y53.169 E15.87479
G1 X-.897 Y53.05 E15.88653
G1 X-1.678 Y52.769 E15.90215
G1 X-35.991 Y38.555 E16.60078
G1 X-36.613 Y38.287 E16.61352
G1 X-37.06 Y38.051 E16.62303
G1 X-37.465 Y37.747 E16.63256
G1 X-37.816 Y37.384 E16.64205
G1 X-38.106 Y36.969 E16.65158
G1 X-38.459 Y36.192 E16.66763
G1 X-39.208 Y34.437 E16.70352
G1 X-39.281 Y34.22 E16.70783
G1 X-39.688 Y33.259 E16.72746
G1 X-52.687 Y1.875 E17.36645
G1 X-52.962 Y1.186 E17.3804
G1 X-53.112 Y0.703 E17.38992
G1 X-53.184 Y0.203 E17.39942
G1 X-53.176 Y-.303 E17.40894
G1 X-53.088 Y-.801 E17.41845
G1 X-52.924 Y-1.291 E17.42817
G1 X-52.759 Y-1.702 E17.4365
G1 X-38.555 Y-35.993 E18.13468
G1 X-38.286 Y-36.616 E18.14745
G1 X-38.049 Y-37.062 E18.15695
G1 X-37.746 Y-37.466 E18.16645
G1 X-37.382 Y-37.818 E18.17597
G1 X-36.967 Y-38.107 E18.18548
G1 X-36.499 Y-38.339 E18.19531
G1 X-36.083 Y-38.517 E18.20382
G1 X-35.448 Y-38.78 E18.21675
G1 X-34.141 Y-39.301 E18.24322
G1 X-31.254 Y-40.505 E18.30206
G1 X-31.017 Y-40.606 E18.3069
G1 X-29.901 Y-41.049 E18.32949
G1 X-26.707 Y-42.382 E18.39459
G1 X-26.209 Y-42.6 E18.40482
G1 X-25.66 Y-42.821 E18.41595
G1 X-23.393 Y-43.756 E18.46208
G1 X-22.032 Y-44.337 E18.48991
G1 X-21.449 Y-44.579 E18.50179
G1 X-19.709 Y-45.27 E18.537
G1 X-19.165 Y-45.479 E18.54797
G1 F1500 E12.04797
;MESH:ctrlv_3D_test_v3.stl
G0 F3600 X-15.05 Y-43.885
G0 X-13.975 Y-43.76
G0 X6.161 Y-38.015
G0 X8.725 Y-41.013
G0 X9.916 Y-40.523
G0 X10.128 Y-38.713
;TYPE:WALL-INNER
G1 F1500 E18.54797
G1 F1800 X10.277 Y-38.712 E18.55077
G1 X10.261 Y-38.667
G1 X10.007 Y-37.945 E18.56517
G1 X10.001 Y-37.929 E18.56549
G1 X9.959 Y-37.961 E18.56594
G1 X9.995 Y-38.719 E18.57172
G1 X10.07 Y-40.24 E18.60036
G1 X10.092 Y-40.692 E18.60887
G1 X10.348 Y-40.583 E18.61411
G1 X10.856 Y-40.367 E18.62449
G1 X10.989 Y-40.31 E18.62721
G1 X10.837 Y-40.32 E18.6275
G1 X10.2 Y-40.234 E18.63456
G1 X10.128 Y-38.713 E18.64396
G0 F3600 X11.497 Y-38.519
G1 F1800 X11.507 Y-38.509 E18.64423
G1 X11.49 Y-38.497 E18.64436
G1 X11.429 Y-38.454 E18.64513
G1 X11.378 Y-38.461 E18.6461
G1 X11.206 Y-38.487 E18.64937
G1 X11.076 Y-38.539 E18.65201
G1 X10.658 Y-38.708 E18.66049
G1 X11.142 Y-38.704 E18.66287
G1 X11.262 Y-38.666 E18.66387
G1 X11.401 Y-38.622 E18.66492
G1 X11.497 Y-38.519 E18.66636
G0 F3600 X10.31 Y-38.884
G0 X10.363 Y-40.086
G0 X11.362 Y-40.11
G0 X12.471 Y-39.641
G0 X13.047 Y-38.696
G0 X12.834 Y-37.673
G0 X12.094 Y-36.204
G0 X11.345 Y-35.583
G0 X9.844 Y-35.605
G1 F1800 X9.851 Y-35.745 E18.669
G1 X9.909 Y-35.709
G1 X10.141 Y-35.562 E18.67362
G1 X10.778 Y-35.376 E18.6861
G1 X11.236 Y-35.412 E18.69474
G1 X11.391 Y-35.425 E18.69767
G1 X11.897 Y-35.7 E18.7085
G1 X12.24 Y-36.128 E18.71882
G1 X12.404 Y-36.685 E18.72974
G1 X12.356 Y-37.071 E18.73706
G1 X12.55 Y-37.151 E18.741
G1 X12.971 Y-37.581 E18.75232
G1 X13.197 Y-38.146 E18.76377
G1 X13.209 Y-38.721 E18.77459
G1 X13.101 Y-39.022 E18.78061
G1 X13.011 Y-39.272 E18.7856
G1 X12.775 Y-39.553 E18.79251
G1 X13.076 Y-39.426 E18.79362
G1 X13.32 Y-39.323 E18.79727
G1 X15.661 Y-38.328 E18.84512
G1 X15.845 Y-38.25 E18.84888
G1 X15.923 Y-38.434 E18.85131
G1 X17.482 Y-42.108 E18.92638
G1 X34.896 Y-34.896 E19.28093
G1 X42.305 Y-17.008 E19.64513
G1 X42.306 Y-17.007 E19.64516
G1 X42.508 Y-16.517 E19.65513
G1 X42.032 Y-16.752 E19.66044
G1 X40.843 Y-17.34 E19.6854
G1 X40.529 Y-19.498 E19.72642
G1 X39.82 Y-19.729 E19.74044
G1 X38.297 Y-18.166 E19.78149
G1 X36.296 Y-18.509 E19.81968
G1 X36.144 Y-18.535 E19.82258
G1 X35.706 Y-17.932 E19.8366
G1 X35.719 Y-17.907 E19.83713
G1 X36.722 Y-16 E19.87766
G1 X35.706 Y-14.068 E19.91872
G1 X36.144 Y-13.465 E19.93274
G1 X38.297 Y-13.834 E19.97383
G1 X39.766 Y-12.326 E20.01343
G1 X36.983 Y-8.495 E20.1025
G1 X38.912 Y-4.162 E20.19172
G1 X43.629 Y-3.667 E20.28094
G1 X46.096 Y-7.063 E20.3599
G1 X46.305 Y-7.351 E20.36659
G1 X46.44 Y-7.023 E20.37034
G1 X46.441 Y-7.022 E20.37037
G1 X49.35 Y0.00 E20.51334
G1 X34.896 Y34.896 E21.22383
G1 X0.00 Y49.35 E21.93433
G1 X-33.516 Y35.466 E22.61674
G1 X-33.961 Y35.282 E22.62579
G1 X-33.516 Y35.098 E22.63066
G1 X-30.193 Y33.72 E22.69833
G1 X-30.009 Y33.644 E22.70208
G1 X-30.085 Y33.46 E22.7045
G1 X-31.617 Y29.765 E22.77974
G1 X-36.23 Y31.675 E22.87366
G1 X-49.35 Y0.00 E23.51857
G1 X-34.896 Y-34.896 E24.22907
G1 X-33.722 Y-35.381 E24.25296
G1 X-33.195 Y-34.906 E24.2663
G1 X-32.333 Y-34.272 E24.28643
G1 X-31.785 Y-33.967 E24.29823
G1 X-31.173 Y-33.808 E24.31012
G1 X-30.579 Y-34.019 E24.32198
G1 X-30.249 Y-34.563 E24.33395
G1 X-30.082 Y-35.257 E24.34738
G1 X-29.963 Y-36.24 E24.366
G1 X-29.882 Y-36.658 E24.37401
G1 X-29.881 Y-36.66 E24.37405
G1 X-29.818 Y-36.991 E24.38039
G1 X-29.559 Y-36.774 E24.38401
G1 X-29.158 Y-36.438 E24.39385
G1 X-28.135 Y-35.371 E24.42166
G1 X-27.116 Y-34.331 E24.44904
G1 X-26.128 Y-33.607 E24.47208
G1 X-25.356 Y-33.56 E24.48663
G1 X-24.879 Y-34.163 E24.5011
G1 X-24.753 Y-35.388 E24.52426
G1 X-24.847 Y-36.906 E24.55287
G1 X-24.953 Y-38.323 E24.5796
G1 X-24.932 Y-38.902 E24.5905
G1 X-24.928 Y-39.024 E24.59279
G1 X-24.705 Y-39.117 E24.59734
G1 X-24.595 Y-39.064 E24.59963
G1 X-24.484 Y-39.009 E24.60196
G1 X-23.304 Y-38.226 E24.6286
G1 X-22.425 Y-37.852 E24.64657
G1 X-21.812 Y-37.939 E24.65822
G1 X-21.377 Y-38.309 E24.66896
G1 X-21.101 Y-39.13 E24.68525
G1 X-20.969 Y-40.22 E24.70591
G1 X-20.88 Y-40.701 E24.71511
G1 X-19.501 Y-41.272 E24.74318
G1 X-19.316 Y-41.264 E24.74667
G1 X-16.773 Y-40.874 E24.79506
G1 X-15.56 Y-40.842 E24.81789
G1 X-14.947 Y-41.012 E24.82985
G1 X-14.47 Y-41.349 E24.84084
G1 X-14.022 Y-42.229 E24.85941
G1 X-13.858 Y-43.196 E24.87786
G1 X-13.806 Y-43.632 E24.88612
G1 X-13.07 Y-43.937 E24.90111
G1 X-12.087 Y-43.328 E24.92286
G1 X-11.575 Y-43.111 E24.93332
G1 X-10.883 Y-42.983 E24.94656
G1 X-10.146 Y-43.047 E24.96047
G1 X-8.918 Y-43.395 E24.98448
G1 X-7.882 Y-43.827 E25.0056
G1 X-6.895 Y-44.352 E25.02663
G1 X-5.951 Y-44.975 E25.0479
G1 X-5.033 Y-45.732 E25.07028
G1 X-3.376 Y-47.425 E25.11485
G1 X-2.771 Y-48.202 E25.13337
G1 X0.00 Y-49.35 E25.18979
G1 X8.28 Y-45.919 E25.35838
G1 X8.465 Y-45.843 E25.36215
G1 X8.387 Y-45.658 E25.36458
G1 X6.862 Y-42.063 E25.43804
G1 X8.474 Y-41.377 E25.47099
G1 X8.725 Y-41.271 E25.47612
G1 X8.548 Y-41.064 E25.47917
G1 X5.433 Y-37.433 E25.56916
G1 X7.087 Y-36.747 E25.60285
G1 X8.303 Y-38.193 E25.63839
G1 X8.182 Y-36.294 E25.67418
G1 X9.8 Y-35.624 E25.7061
G1 X9.844 Y-35.605
G0 F3600 X10.794 Y-35.54
G0 X18.353 Y-39.221
G0 X19.475 Y-39.34
G0 X20.99 Y-38.386
G1 F1800 X20.593 Y-38.926 E25.71871
G1 X20.09 Y-39.296 E25.73045
G1 X19.506 Y-39.5 E25.74209
G1 X18.888 Y-39.526 E25.75372
G1 X18.29 Y-39.371 E25.76534
G1 X17.759 Y-39.049 E25.77702
G1 X17.323 Y-38.549 E25.7895
G1 X17.061 Y-37.931 E25.80213
G1 X17.008 Y-37.265 E25.8147
G1 X17.164 Y-36.617 E25.82723
G1 X17.521 Y-36.046 E25.8399
G1 X18.033 Y-35.619 E25.85244
G1 X18.611 Y-35.385 E25.86417
G1 X19.227 Y-35.327 E25.87581
G1 X19.832 Y-35.452 E25.88743
G1 X20.225 Y-35.665 E25.89584
G1 X20.38 Y-35.749 E25.89916
G1 X20.486 Y-35.86 E25.90204
G1 X20.602 Y-35.98 E25.90518
G1 X20.558 Y-35.792 E25.90595
G1 X20.559 Y-35.756
G1 X20.565 Y-35.579 E25.90851
G1 X20.585 Y-35.093 E25.91766
G1 X20.8 Y-34.424 E25.93087
G1 X21.184 Y-33.838 E25.94405
G1 X21.715 Y-33.372 E25.95734
