;FLAVOR:Marlin
;TIME:4165
;Filament used: 1.0239m
;Layer height: 0.2
;MINX:-57.8
;MINY:-57.8
;MINZ:0.2
;MAXX:57.8
;MAXY:57.8
;MAXZ:23
;Generated with Cura_SteamEngine 4.8.0
M140 S50
M105
M190 S50
M104 S190
M105
M109 S190
M82 ;absolute extrusion mode
G28 ;Home
G1 Z15.0 F6000 ;Move the platform down 15mm
;Prime the extruder
G92 E0
G1 F200 E3
G92 E0
G92 E0
G92 E0
G1 F1500 E-6.5
;LAYER_COUNT:117
;LAYER:0
M107
G0 F3600 X-10.621 Y-52.031 Z0.2
;TYPE:SKIRT
G1 F1500 E0
G1 F1800 X-9.713 Y-52.96 E0.01629
G1 X-9.3 Y-53.49 E0.02472
G1 X-8.784 Y-54.088 E0.03462
G1 X-8.209 Y-54.63 E0.04453
G1 X-7.584 Y-55.111 E0.05442
G1 X-6.912 Y-55.527 E0.06433
G1 X-6.135 Y-55.901 E0.07515
G1 X-2.988 Y-57.206 E0.11787
G1 X-2.244 Y-57.471 E0.12777
G1 X-1.477 Y-57.66 E0.13768
G1 X-.695 Y-57.77 E0.14758
G1 X0.094 Y-57.8 E0.15748
G1 X0.882 Y-57.751 E0.16738
G1 X1.661 Y-57.622 E0.17729
G1 X2.423 Y-57.415 E0.18719
G1 X2.986 Y-57.207 E0.19472
G1 X12.24 Y-53.373 E0.32033
G1 X12.89 Y-53.104 E0.32915
G1 X13.777 Y-52.736 E0.34119
G1 X14.331 Y-52.507 E0.34871
G1 X15.218 Y-52.139 E0.36075
G1 X15.673 Y-51.95 E0.36693
G1 X16.56 Y-51.583 E0.37897
G1 X16.937 Y-51.428 E0.38408
G1 X17.824 Y-51.06 E0.39613
G1 X18.094 Y-50.947 E0.3998
G1 X18.981 Y-50.58 E0.41183
G1 X20.053 Y-50.136 E0.42638
G1 X38.34 Y-42.561 E0.67461
G1 X39.053 Y-42.222 E0.68451
G1 X39.729 Y-41.813 E0.69441
G1 X40.359 Y-41.338 E0.70431
G1 X40.939 Y-40.801 E0.71422
G1 X41.461 Y-40.209 E0.72412
G1 X41.92 Y-39.566 E0.73403
G1 X42.312 Y-38.881 E0.74392
G1 X42.561 Y-38.34 E0.75139
G1 X57.207 Y-2.985 E1.23129
G1 X57.472 Y-2.241 E1.2412
G1 X57.66 Y-1.474 E1.2511
G1 X57.77 Y-.692 E1.261
G1 X57.8 Y0.097 E1.27091
G1 X57.751 Y0.885 E1.28081
G1 X57.621 Y1.664 E1.29071
G1 X57.414 Y2.426 E1.30061
G1 X57.207 Y2.985 E1.30809
G1 X42.561 Y38.34 E1.78799
G1 X42.222 Y39.054 E1.7979
G1 X41.813 Y39.729 E1.8078
G1 X41.338 Y40.36 E1.8177
G1 X40.801 Y40.939 E1.82761
G1 X40.209 Y41.461 E1.8375
G1 X39.566 Y41.92 E1.84741
G1 X38.881 Y42.313 E1.85731
G1 X38.34 Y42.561 E1.86478
G1 X2.985 Y57.207 E2.34468
G1 X2.241 Y57.472 E2.35458
G1 X1.474 Y57.66 E2.36449
G1 X0.692 Y57.77 E2.37439
G1 X-0.097 Y57.8 E2.38429
G1 X-.885 Y57.751 E2.39419
G1 X-1.664 Y57.621 E2.4041
G1 X-2.426 Y57.414 E2.414
G1 X-2.985 Y57.207 E2.42147
G1 X-38.34 Y42.561 E2.90138
G1 X-39.054 Y42.222 E2.91129
G1 X-39.729 Y41.813 E2.92118
G1 X-40.36 Y41.338 E2.93109
G1 X-40.939 Y40.801 E2.94099
G1 X-41.461 Y40.209 E2.95089
G1 X-41.92 Y39.566 E2.9608
G1 X-42.313 Y38.881 E2.9707
G1 X-42.56 Y38.343 E2.97812
G1 X-42.611 Y38.22 E2.97979
G1 X-42.876 Y37.476 E2.9897
G1 X-43.053 Y36.758 E2.99897
G1 X-43.223 Y36.507 E3.00277
G1 X-43.598 Y35.812 E3.01268
G1 X-43.761 Y35.445 E3.01771
G1 X-57.207 Y2.985 E3.45831
G1 X-57.472 Y2.241 E3.46822
G1 X-57.66 Y1.474 E3.47812
G1 X-57.77 Y0.692 E3.48802
G1 X-57.8 Y-0.097 E3.49793
G1 X-57.751 Y-.885 E3.50783
G1 X-57.621 Y-1.664 E3.51773
G1 X-57.414 Y-2.426 E3.52763
G1 X-57.207 Y-2.985 E3.53511
G1 X-42.561 Y-38.34 E4.01501
G1 X-42.222 Y-39.054 E4.02492
G1 X-41.813 Y-39.729 E4.03482
G1 X-41.338 Y-40.36 E4.04472
G1 X-40.801 Y-40.939 E4.05463
G1 X-40.209 Y-41.461 E4.06452
G1 X-39.566 Y-41.92 E4.07443
G1 X-38.881 Y-42.313 E4.08434
G1 X-38.341 Y-42.561 E4.09179
G1 X-36.589 Y-43.287 E4.11557
G1 X-35.845 Y-43.552 E4.12547
G1 X-35.078 Y-43.74 E4.13538
G1 X-34.85 Y-43.772 E4.13826
G1 X-34.527 Y-44.005 E4.14326
G1 X-33.842 Y-44.399 E4.15317
G1 X-33.279 Y-44.658 E4.16094
G1 X-32.757 Y-44.874 E4.16802
G1 X-32.013 Y-45.139 E4.17793
G1 X-31.246 Y-45.327 E4.18783
G1 X-30.483 Y-45.433 E4.19749
G1 X-30.076 Y-45.76 E4.20404
G1 X-29.413 Y-46.188 E4.21394
G1 X-28.498 Y-46.639 E4.22673
G1 X-27.667 Y-46.983 E4.23801
G1 X-26.923 Y-47.248 E4.24791
G1 X-26.156 Y-47.436 E4.25781
G1 X-25.901 Y-47.472 E4.26104
G1 X-25.657 Y-47.653 E4.26485
G1 X-24.979 Y-48.058 E4.27476
G1 X-24.308 Y-48.374 E4.28406
G1 X-22.594 Y-49.084 E4.30732
G1 X-21.85 Y-49.349 E4.31723
G1 X-21.083 Y-49.537 E4.32713
G1 X-20.301 Y-49.647 E4.33703
G1 X-19.769 Y-49.661 E4.34371
G1 X-19.642 Y-49.79 E4.34598
G1 X-19.035 Y-50.295 E4.35588
G1 X-18.379 Y-50.736 E4.36579
G1 X-17.349 Y-51.256 E4.38026
G1 X-16.004 Y-51.814 E4.39852
G1 X-15.26 Y-52.079 E4.40843
G1 X-14.493 Y-52.268 E4.41833
G1 X-13.711 Y-52.378 E4.42824
G1 X-12.922 Y-52.408 E4.43814
G1 X-12.134 Y-52.359 E4.44804
G1 X-11.355 Y-52.23 E4.45794
G1 X-10.621 Y-52.031 E4.46748
G0 F3600 X-10.585 Y-51.598
G1 F1800 X-10.523 Y-51.573 E4.46832
G1 X-10.457 Y-51.628 E4.46939
G1 X-9.406 Y-52.703 E4.48825
G1 X-8.984 Y-53.244 E4.49685
G1 X-8.481 Y-53.826 E4.5065
G1 X-7.919 Y-54.351 E4.51614
G1 X-7.307 Y-54.816 E4.52578
G1 X-6.649 Y-55.215 E4.53543
G1 X-5.982 Y-55.532 E4.54469
G1 X-2.835 Y-56.837 E4.58741
G1 X-2.11 Y-57.094 E4.59706
G1 X-1.362 Y-57.275 E4.60671
G1 X-.6 Y-57.377 E4.61635
G1 X0.169 Y-57.399 E4.626
G1 X0.936 Y-57.342 E4.63564
G1 X1.693 Y-57.205 E4.64529
G1 X2.432 Y-56.99 E4.65494
G1 X2.832 Y-56.837 E4.66031
G1 X12.086 Y-53.003 E4.78593
G1 X12.737 Y-52.734 E4.79476
G1 X13.624 Y-52.366 E4.8068
G1 X14.178 Y-52.137 E4.81432
G1 X15.065 Y-51.769 E4.82636
G1 X15.52 Y-51.581 E4.83254
G1 X16.407 Y-51.214 E4.84458
G1 X16.784 Y-51.058 E4.84969
G1 X17.671 Y-50.69 E4.86174
G1 X17.941 Y-50.578 E4.8654
G1 X18.828 Y-50.211 E4.87744
G1 X19.9 Y-49.767 E4.89199
G1 X38.187 Y-42.192 E5.14021
G1 X38.881 Y-41.861 E5.14985
G1 X39.538 Y-41.46 E5.15951
G1 X40.149 Y-40.992 E5.16916
G1 X40.708 Y-40.464 E5.1788
G1 X41.209 Y-39.881 E5.18844
G1 X41.648 Y-39.249 E5.19809
G1 X42.018 Y-38.575 E5.20773
G1 X42.192 Y-38.187 E5.21306
G1 X56.838 Y-2.832 E5.69297
G1 X57.095 Y-2.107 E5.70261
G1 X57.275 Y-1.359 E5.71226
G1 X57.377 Y-.597 E5.7219
G1 X57.399 Y0.172 E5.73155
G1 X57.341 Y0.939 E5.74119
G1 X57.204 Y1.696 E5.75084
G1 X56.989 Y2.434 E5.76048
G1 X56.838 Y2.832 E5.76582
G1 X42.192 Y38.187 E6.24572
G1 X41.861 Y38.881 E6.25536
G1 X41.46 Y39.538 E6.26502
G1 X40.992 Y40.149 E6.27467
G1 X40.464 Y40.708 E6.28431
G1 X39.881 Y41.209 E6.29395
G1 X39.249 Y41.648 E6.3036
G1 X38.575 Y42.018 E6.31324
G1 X38.187 Y42.192 E6.31857
G1 X2.832 Y56.838 E6.79848
G1 X2.107 Y57.095 E6.80812
G1 X1.359 Y57.275 E6.81777
G1 X0.597 Y57.377 E6.82741
G1 X-.172 Y57.399 E6.83706
G1 X-.939 Y57.341 E6.8467
G1 X-1.696 Y57.204 E6.85635
G1 X-2.434 Y56.989 E6.86599
G1 X-2.832 Y56.838 E6.87133
G1 X-38.187 Y42.192 E7.35123
G1 X-38.881 Y41.861 E7.36087
G1 X-39.538 Y41.46 E7.37053
G1 X-40.149 Y40.992 E7.38018
G1 X-40.708 Y40.464 E7.38982
G1 X-41.209 Y39.881 E7.39946
G1 X-41.648 Y39.249 E7.40911
G1 X-42.018 Y38.575 E7.41875
G1 X-42.242 Y38.066 E7.42573
G1 X-42.499 Y37.341 E7.43537
G1 X-42.677 Y36.607 E7.44484
G1 X-43.022 Y36.057 E7.45299
G1 X-43.392 Y35.292 E7.46364
G1 X-56.838 Y2.832 E7.90424
G1 X-57.095 Y2.107 E7.91389
G1 X-57.275 Y1.359 E7.92354
G1 X-57.377 Y0.597 E7.93318
G1 X-57.399 Y-.172 E7.94283
G1 X-57.341 Y-.939 E7.95247
G1 X-57.204 Y-1.696 E7.96212
G1 X-56.989 Y-2.434 E7.97176
G1 X-56.838 Y-2.832 E7.9771
G1 X-42.192 Y-38.187 E8.457
G1 X-41.861 Y-38.881 E8.46664
G1 X-41.46 Y-39.538 E8.47629
G1 X-40.992 Y-40.149 E8.48595
G1 X-40.464 Y-40.708 E8.49559
G1 X-39.881 Y-41.209 E8.50523
G1 X-39.249 Y-41.648 E8.51488
G1 X-38.575 Y-42.018 E8.52452
G1 X-38.188 Y-42.191 E8.52984
G1 X-36.436 Y-42.917 E8.55362
G1 X-35.711 Y-43.174 E8.56326
G1 X-34.963 Y-43.355 E8.57291
G1 X-34.695 Y-43.391 E8.57631
G1 X-34.276 Y-43.69 E8.58276
G1 X-33.607 Y-44.069 E8.5924
G1 X-33.126 Y-44.289 E8.59904
G1 X-32.604 Y-44.505 E8.60612
G1 X-31.879 Y-44.761 E8.61576
G1 X-31.132 Y-44.942 E8.6254
G1 X-30.369 Y-45.043 E8.63505
G1 X-30.306 Y-45.072 E8.63592
G1 X-29.695 Y-45.539 E8.64557
G1 X-29.038 Y-45.939 E8.65521
G1 X-28.345 Y-46.269 E8.66484
G1 X-27.514 Y-46.613 E8.67612
G1 X-26.789 Y-46.87 E8.68576
G1 X-26.042 Y-47.05 E8.6954
G1 X-25.746 Y-47.09 E8.69914
G1 X-25.352 Y-47.375 E8.70524
G1 X-24.685 Y-47.76 E8.7149
G1 X-24.155 Y-48.005 E8.72222
G1 X-22.441 Y-48.715 E8.74549
G1 X-21.716 Y-48.972 E8.75513
G1 X-20.968 Y-49.152 E8.76478
G1 X-20.206 Y-49.254 E8.77442
G1 X-19.595 Y-49.267 E8.78209
G1 X-19.267 Y-49.59 E8.78786
G1 X-18.666 Y-50.069 E8.7975
G1 X-18.018 Y-50.484 E8.80715
G1 X-17.196 Y-50.886 E8.81862
G1 X-15.851 Y-51.444 E8.83688
G1 X-15.126 Y-51.702 E8.84653
G1 X-14.378 Y-51.882 E8.85618
G1 X-13.616 Y-51.985 E8.86582
G1 X-12.847 Y-52.007 E8.87547
G1 X-12.08 Y-51.95 E8.88512
G1 X-11.323 Y-51.813 E8.89476
G1 X-10.585 Y-51.598 E8.9044
G0 F3600 X-10.183 Y-51.335
G1 F1800 X-9.108 Y-52.435 E8.92369
G1 X-8.669 Y-52.998 E8.93264
G1 X-8.178 Y-53.563 E8.94203
G1 X-7.63 Y-54.072 E8.95141
G1 X-7.031 Y-54.52 E8.96079
G1 X-6.387 Y-54.901 E8.97017
G1 X-5.828 Y-55.162 E8.97791
G1 X-2.681 Y-56.467 E9.02063
G1 X-1.976 Y-56.716 E9.03001
G1 X-1.248 Y-56.889 E9.03939
G1 X-.506 Y-56.983 E9.04877
G1 X0.242 Y-56.997 E9.05815
G1 X0.987 Y-56.931 E9.06753
G1 X1.721 Y-56.786 E9.07692
G1 X2.679 Y-56.468 E9.08957
G1 X11.933 Y-52.634 E9.21519
G1 X12.583 Y-52.365 E9.22401
G1 X13.47 Y-51.997 E9.23605
G1 X14.024 Y-51.768 E9.24357
G1 X14.911 Y-51.4 E9.25561
G1 X15.367 Y-51.211 E9.2618
G1 X16.254 Y-50.844 E9.27384
G1 X16.63 Y-50.689 E9.27894
G1 X17.517 Y-50.321 E9.29098
G1 X17.788 Y-50.208 E9.29467
G1 X18.675 Y-49.841 E9.3067
G1 X19.776 Y-49.383 E9.32166
G1 X19.842 Y-49.358 E9.32254
G1 X38.034 Y-41.822 E9.56948
G1 X38.709 Y-41.499 E9.57886
G1 X39.345 Y-41.106 E9.58824
G1 X39.936 Y-40.648 E9.59761
G1 X40.475 Y-40.129 E9.607
G1 X40.955 Y-39.555 E9.61638
G1 X41.371 Y-38.933 E9.62576
G1 X41.822 Y-38.034 E9.63838
G1 X56.468 Y-2.679 E10.11828
G1 X56.717 Y-1.974 E10.12765
G1 X56.889 Y-1.246 E10.13703
G1 X56.983 Y-.503 E10.14643
G1 X56.997 Y0.244 E10.1558
G1 X56.931 Y0.99 E10.16519
G1 X56.786 Y1.723 E10.17456
G1 X56.468 Y2.679 E10.18719
G1 X41.822 Y38.034 E10.66709
G1 X41.499 Y38.709 E10.67648
G1 X41.106 Y39.345 E10.68585
G1 X40.648 Y39.936 E10.69523
G1 X40.128 Y40.475 E10.70462
G1 X39.555 Y40.955 E10.71399
G1 X38.933 Y41.371 E10.72338
G1 X38.034 Y41.822 E10.73599
G1 X2.679 Y56.468 E11.21589
G1 X1.974 Y56.717 E11.22527
G1 X1.246 Y56.889 E11.23465
G1 X0.503 Y56.983 E11.24404
G1 X-.244 Y56.997 E11.25341
G1 X-.99 Y56.931 E11.2628
G1 X-1.723 Y56.786 E11.27217
G1 X-2.679 Y56.468 E11.28481
G1 X-38.034 Y41.822 E11.76471
G1 X-38.709 Y41.499 E11.77409
G1 X-39.345 Y41.106 E11.78347
G1 X-39.936 Y40.648 E11.79285
G1 X-40.475 Y40.128 E11.80224
G1 X-40.955 Y39.555 E11.81161
G1 X-41.371 Y38.933 E11.82099
G1 X-41.821 Y38.036 E11.83358
G1 X-41.872 Y37.913 E11.83525
G1 X-42.121 Y37.208 E11.84463
G1 X-42.294 Y36.48 E11.85401
G1 X-42.435 Y36.258 E11.85731
G1 X-42.807 Y35.609 E11.86669
G1 X-43.022 Y35.139 E11.87317
G1 X-56.468 Y2.679 E12.31377
G1 X-56.717 Y1.973 E12.32316
G1 X-56.889 Y1.246 E12.33253
G1 X-56.983 Y0.503 E12.34192
G1 X-56.997 Y-.245 E12.3513
G1 X-56.931 Y-.99 E12.36068
G1 X-56.785 Y-1.724 E12.37007
G1 X-56.468 Y-2.679 E12.38268
G1 X-41.822 Y-38.034 E12.86259
G1 X-41.499 Y-38.709 E12.87197
G1 X-41.106 Y-39.345 E12.88135
G1 X-40.648 Y-39.936 E12.89072
G1 X-40.128 Y-40.475 E12.90011
G1 X-39.555 Y-40.955 E12.90949
G1 X-38.933 Y-41.371 E12.91887
G1 X-38.035 Y-41.822 E12.93147
G1 X-36.283 Y-42.548 E12.95526
G1 X-35.577 Y-42.797 E12.96464
G1 X-34.849 Y-42.969 E12.97402
G1 X-34.546 Y-43.007 E12.97785
G1 X-34.026 Y-43.375 E12.98584
G1 X-33.373 Y-43.739 E12.99522
G1 X-32.973 Y-43.919 E13.00072
G1 X-32.451 Y-44.135 E13.0078
G1 X-31.746 Y-44.384 E13.01718
G1 X-31.018 Y-44.556 E13.02656
G1 X-30.276 Y-44.649 E13.03594
G1 X-30.165 Y-44.651 E13.03733
G1 X-29.921 Y-44.872 E13.04146
G1 X-29.315 Y-45.311 E13.05084
G1 X-28.666 Y-45.683 E13.06022
G1 X-28.192 Y-45.9 E13.06676
G1 X-27.361 Y-46.244 E13.07804
G1 X-26.656 Y-46.493 E13.08742
G1 X-25.928 Y-46.665 E13.0968
G1 X-25.599 Y-46.706 E13.10095
G1 X-25.047 Y-47.095 E13.10942
G1 X-24.394 Y-47.459 E13.1188
G1 X-24.002 Y-47.635 E13.12419
G1 X-22.288 Y-48.345 E13.14745
G1 X-21.582 Y-48.594 E13.15684
G1 X-20.855 Y-48.766 E13.16621
G1 X-20.112 Y-48.86 E13.1756
G1 X-19.435 Y-48.872 E13.18409
G1 X-18.894 Y-49.384 E13.19343
G1 X-18.299 Y-49.838 E13.20282
G1 X-17.659 Y-50.225 E13.2122
G1 X-17.042 Y-50.517 E13.22076
G1 X-15.697 Y-51.075 E13.23902
G1 X-14.992 Y-51.324 E13.24839
G1 X-14.264 Y-51.497 E13.25778
G1 X-13.522 Y-51.591 E13.26716
G1 X-12.774 Y-51.605 E13.27654
G1 X-12.029 Y-51.539 E13.28592
G1 X-11.295 Y-51.394 E13.2953
G1 X-10.581 Y-51.172 E13.30468
G1 X-10.45 Y-51.115 E13.30647
G1 X-10.183 Y-51.335 E13.31081
G0 F3600 X-9.915 Y-51.038
G1 F1800 X-8.804 Y-52.174 E13.33073
G1 X-8.353 Y-52.753 E13.33994
G1 X-7.876 Y-53.3 E13.34904
G1 X-7.341 Y-53.792 E13.35815
G1 X-6.756 Y-54.222 E13.36726
G1 X-6.127 Y-54.585 E13.37636
G1 X-5.675 Y-54.793 E13.3826
G1 X-2.528 Y-56.098 E13.42533
G1 X-1.843 Y-56.338 E13.43443
G1 X-1.135 Y-56.503 E13.44355
G1 X-.414 Y-56.588 E13.45265
G1 X0.312 Y-56.594 E13.46175
G1 X1.035 Y-56.519 E13.47087
G1 X1.745 Y-56.366 E13.47998
G1 X2.526 Y-56.098 E13.49033
G1 X11.78 Y-52.264 E13.61595
G1 X12.43 Y-51.995 E13.62477
G1 X13.317 Y-51.627 E13.63681
G1 X13.871 Y-51.398 E13.64433
G1 X14.758 Y-51.03 E13.65637
G1 X15.214 Y-50.842 E13.66256
G1 X16.101 Y-50.475 E13.67459
G1 X16.477 Y-50.319 E13.6797
G1 X17.364 Y-49.951 E13.69174
G1 X17.635 Y-49.839 E13.69542
G1 X18.522 Y-49.472 E13.70746
G1 X19.594 Y-49.028 E13.72201
G1 X37.881 Y-41.453 E13.97023
G1 X38.536 Y-41.138 E13.97934
G1 X39.152 Y-40.754 E13.98845
G1 X39.722 Y-40.304 E13.99755
G1 X40.239 Y-39.794 E14.00666
G1 X40.698 Y-39.23 E14.01578
G1 X41.091 Y-38.62 E14.02488
G1 X41.453 Y-37.881 E14.0352
G1 X56.099 Y-2.526 E14.5151
G1 X56.339 Y-1.841 E14.5242
G1 X56.503 Y-1.133 E14.53332
G1 X56.588 Y-.412 E14.54242
G1 X56.593 Y0.315 E14.55154
G1 X56.519 Y1.037 E14.56064
G1 X56.366 Y1.747 E14.56975
G1 X56.099 Y2.526 E14.58007
G1 X41.453 Y37.881 E15.05998
G1 X41.138 Y38.536 E15.06909
G1 X40.753 Y39.152 E15.0782
G1 X40.304 Y39.722 E15.0873
G1 X39.794 Y40.239 E15.09641
G1 X39.23 Y40.698 E15.10553
G1 X38.62 Y41.091 E15.11463
G1 X37.881 Y41.453 E15.12494
G1 X2.526 Y56.099 E15.60485
G1 X1.841 Y56.339 E15.61395
G1 X1.133 Y56.503 E15.62306
G1 X0.412 Y56.588 E15.63217
G1 X-.315 Y56.593 E15.64128
G1 X-1.037 Y56.519 E15.65039
G1 X-1.747 Y56.366 E15.65949
G1 X-2.526 Y56.099 E15.66982
G1 X-37.881 Y41.453 E16.14972
G1 X-38.536 Y41.138 E16.15884
G1 X-39.152 Y40.753 E16.16795
G1 X-39.722 Y40.304 E16.17705
G1 X-40.239 Y39.794 E16.18615
G1 X-40.698 Y39.23 E16.19527
G1 X-41.091 Y38.62 E16.20437
G1 X-41.452 Y37.883 E16.21466
G1 X-41.503 Y37.76 E16.21633
G1 X-41.744 Y37.075 E16.22544
G1 X-41.908 Y36.367 E16.23455
G1 X-41.916 Y36.299 E16.23541
G1 X-42.243 Y35.808 E16.24281
G1 X-42.653 Y34.986 E16.25433
G1 X-56.099 Y2.526 E16.69493
G1 X-56.339 Y1.84 E16.70404
G1 X-56.503 Y1.133 E16.71315
G1 X-56.588 Y0.411 E16.72226
G1 X-56.593 Y-.315 E16.73137
G1 X-56.519 Y-1.037 E16.74047
G1 X-56.365 Y-1.747 E16.74958
G1 X-56.099 Y-2.526 E16.7599
G1 X-41.453 Y-37.881 E17.2398
G1 X-41.138 Y-38.536 E17.24892
G1 X-40.753 Y-39.152 E17.25803
G1 X-40.304 Y-39.722 E17.26713
G1 X-39.794 Y-40.239 E17.27623
G1 X-39.23 Y-40.698 E17.28535
G1 X-38.62 Y-41.091 E17.29445
G1 X-37.882 Y-41.452 E17.30476
G1 X-36.13 Y-42.178 E17.32854
G1 X-35.444 Y-42.419 E17.33766
G1 X-34.737 Y-42.583 E17.34676
G1 X-34.373 Y-42.642 E17.35138
G1 X-33.777 Y-43.059 E17.3605
G1 X-32.821 Y-43.55 E17.37398
G1 X-32.299 Y-43.766 E17.38106
G1 X-31.613 Y-44.006 E17.39018
G1 X-30.905 Y-44.169 E17.39929
G1 X-30.184 Y-44.254 E17.40839
G1 X-30.014 Y-44.255 E17.41053
G1 X-29.537 Y-44.665 E17.41841
G1 X-28.937 Y-45.075 E17.42753
G1 X-28.039 Y-45.53 E17.44015
G1 X-27.208 Y-45.874 E17.45143
G1 X-26.523 Y-46.115 E17.46054
G1 X-25.815 Y-46.278 E17.46965
G1 X-25.435 Y-46.323 E17.47445
G1 X-25.344 Y-46.401 E17.47595
G1 X-24.745 Y-46.812 E17.48506
G1 X-23.849 Y-47.266 E17.49765
G1 X-22.135 Y-47.976 E17.52092
G1 X-21.449 Y-48.216 E17.53003
G1 X-20.742 Y-48.38 E17.53914
G1 X-20.02 Y-48.465 E17.54825
G1 X-19.365 Y-48.474 E17.55647
G1 X-19.25 Y-48.47 E17.55791
G1 X-19.059 Y-48.686 E17.56153
G1 X-18.521 Y-49.174 E17.57063
G1 X-17.933 Y-49.6 E17.57974
G1 X-17.302 Y-49.959 E17.58884
G1 X-16.889 Y-50.147 E17.59453
G1 X-15.544 Y-50.705 E17.6128
G1 X-14.859 Y-50.946 E17.6219
G1 X-14.151 Y-51.11 E17.63102
G1 X-13.43 Y-51.196 E17.64012
G1 X-12.704 Y-51.202 E17.64923
G1 X-11.981 Y-51.128 E17.65834
