;FLAVOR:Marlin
;TIME:715
;Filament used: 0.222582m
;Layer height: 0.2
;MINX:-27.35
;MINY:-38.531
;MINZ:0.2
;MAXX:27.35
;MAXY:38.531
;MAXZ:5
;Generated with Cura_SteamEngine 4.8.0
M140 S50
M105
M190 S50
M104 S190
M105
M109 S190
M82 ;absolute extrusion mode
G28 ;Home
G1 Z15.0 F6000 ;Move the platform down 15mm
;Prime the extruder
G92 E0
G1 F200 E3
G92 E0
G92 E0
G92 E0
G1 F1500 E-6.5
;LAYER_COUNT:25
;LAYER:0
M107
G0 F3600 X-13.173 Y7.189 Z0.2
;TYPE:SKIRT
G1 F1500 E0
G1 F1800 X-14.605 Y4.877 E0.0341
G1 X-16.112 Y2.59 E0.06845
G1 X-17.672 Y0.367 E0.10251
G1 X-19.302 Y-1.824 E0.13675
G1 X-20.99 Y-3.962 E0.17091
G1 X-22.738 Y-6.054 E0.2051
G1 X-24.561 Y-8.113 E0.23959
G1 X-26.368 Y-10.044 E0.27275
G1 X-26.705 Y-10.462 E0.27948
G1 X-26.975 Y-10.925 E0.28621
G1 X-27.174 Y-11.423 E0.29293
G1 X-27.296 Y-11.945 E0.29965
G1 X-27.348 Y-12.72 E0.30939
G1 X-27.35 Y-12.83 E0.31077
G1 X-27.35 Y-21.845 E0.42383
G1 X-27.34 Y-22.542 E0.43257
G1 X-27.306 Y-23.093 E0.43949
G1 X-27.284 Y-23.318 E0.44233
G1 X-27.125 Y-24.825 E0.46133
G1 X-27.051 Y-25.455 E0.46928
G1 X-26.92 Y-26.083 E0.47733
G1 X-26.584 Y-27.187 E0.4918
G1 X-26.302 Y-28.053 E0.50322
G1 X-26.085 Y-28.69 E0.51166
G1 X-25.831 Y-29.265 E0.51954
G1 X-25.298 Y-30.232 E0.53339
G1 X-24.784 Y-31.121 E0.54627
G1 X-24.474 Y-31.639 E0.55384
G1 X-24.11 Y-32.143 E0.56163
G1 X-23.369 Y-32.999 E0.57583
G1 X-22.709 Y-33.731 E0.58819
G1 X-22.296 Y-34.179 E0.59583
G1 X-21.821 Y-34.61 E0.60388
G1 X-20.937 Y-35.278 E0.61777
G1 X-20.136 Y-35.859 E0.63018
G1 X-19.61 Y-36.229 E0.63824
G1 X-19.066 Y-36.545 E0.64613
G1 X-18.051 Y-37.02 E0.66019
G1 X-17.203 Y-37.398 E0.67183
G1 X-16.578 Y-37.666 E0.68036
G1 X-15.978 Y-37.863 E0.68828
G1 X-14.897 Y-38.115 E0.7022
G1 X-13.923 Y-38.321 E0.71468
G1 X-13.319 Y-38.441 E0.7224
G1 X-12.688 Y-38.509 E0.73036
G1 X-11.553 Y-38.531 E0.7446
G1 X-10.6 Y-38.531 E0.75655
G1 X-9.952 Y-38.522 E0.76468
G1 X-9.326 Y-38.458 E0.77257
G1 X-8.219 Y-38.246 E0.7867
G1 X-7.295 Y-38.048 E0.79855
G1 X-6.641 Y-37.899 E0.80696
G1 X-6.045 Y-37.707 E0.81482
G1 X-5.016 Y-37.274 E0.82882
G1 X-4.13 Y-36.878 E0.84099
G1 X-3.541 Y-36.606 E0.84912
G1 X-2.989 Y-36.29 E0.8571
G1 X-2.11 Y-35.675 E0.87055
G1 X-1.3 Y-35.087 E0.8831
G1 X-.774 Y-34.692 E0.89135
G1 X-.312 Y-34.277 E0.89914
G1 X0.431 Y-33.485 E0.91276
G1 X1.116 Y-32.724 E0.9256
G1 X1.528 Y-32.253 E0.93345
G1 X1.899 Y-31.745 E0.94133
G1 X2.481 Y-30.78 E0.95547
G1 X2.982 Y-29.911 E0.96805
G1 X3.271 Y-29.394 E0.97547
G1 X3.53 Y-28.818 E0.98339
G1 X3.908 Y-27.727 E0.99787
G1 X4.145 Y-26.998 E1.00749
G1 X5.024 Y-24.422 E1.04162
G1 X5.98 Y-21.858 E1.07593
G1 X7.008 Y-19.323 E1.11024
G1 X8.094 Y-16.849 E1.14412
G1 X9.27 Y-14.359 E1.17865
G1 X10.488 Y-11.964 E1.21235
G1 X11.808 Y-9.535 E1.24702
G1 X13.179 Y-7.179 E1.2812
G1 X14.605 Y-4.877 E1.31516
G1 X16.112 Y-2.59 E1.3495
G1 X17.672 Y-.367 E1.38356
G1 X19.302 Y1.824 E1.41781
G1 X20.99 Y3.962 E1.45197
G1 X22.737 Y6.053 E1.48614
G1 X24.561 Y8.113 E1.52064
G1 X26.368 Y10.044 E1.55381
G1 X26.705 Y10.462 E1.56054
G1 X26.975 Y10.925 E1.56726
G1 X27.174 Y11.423 E1.57399
G1 X27.296 Y11.945 E1.58071
G1 X27.348 Y12.72 E1.59045
G1 X27.35 Y12.83 E1.59183
G1 X27.35 Y21.845 E1.70488
G1 X27.34 Y22.542 E1.71362
G1 X27.306 Y23.093 E1.72054
G1 X27.284 Y23.318 E1.72338
G1 X27.125 Y24.825 E1.74238
G1 X27.051 Y25.455 E1.75034
G1 X26.92 Y26.083 E1.75838
G1 X26.584 Y27.187 E1.77285
G1 X26.302 Y28.053 E1.78427
G1 X26.085 Y28.69 E1.79271
G1 X25.831 Y29.265 E1.8006
G1 X25.298 Y30.232 E1.81444
G1 X24.784 Y31.121 E1.82732
G1 X24.474 Y31.639 E1.83489
G1 X24.109 Y32.144 E1.84271
G1 X23.374 Y32.994 E1.8568
G1 X22.709 Y33.731 E1.86925
G1 X22.296 Y34.179 E1.87689
G1 X21.821 Y34.61 E1.88493
G1 X20.937 Y35.278 E1.89882
G1 X20.139 Y35.858 E1.9112
G1 X19.614 Y36.228 E1.91925
G1 X19.066 Y36.546 E1.9272
G1 X18.051 Y37.02 E1.94124
G1 X17.203 Y37.398 E1.95289
G1 X16.578 Y37.666 E1.96141
G1 X15.978 Y37.863 E1.96933
G1 X14.897 Y38.115 E1.98325
G1 X13.923 Y38.321 E1.99574
G1 X13.319 Y38.441 E2.00346
G1 X12.688 Y38.509 E2.01142
G1 X11.553 Y38.531 E2.02566
G1 X10.6 Y38.531 E2.03761
G1 X9.952 Y38.522 E2.04573
G1 X9.326 Y38.458 E2.05362
G1 X8.219 Y38.246 E2.06776
G1 X7.295 Y38.048 E2.07961
G1 X6.641 Y37.899 E2.08802
G1 X6.045 Y37.707 E2.09587
G1 X5.016 Y37.274 E2.10987
G1 X4.13 Y36.878 E2.12204
G1 X3.541 Y36.606 E2.13018
G1 X2.988 Y36.289 E2.13817
G1 X2.11 Y35.675 E2.15161
G1 X1.3 Y35.087 E2.16416
G1 X0.774 Y34.692 E2.17241
G1 X0.312 Y34.277 E2.1802
G1 X-.432 Y33.485 E2.19382
G1 X-1.145 Y32.692 E2.2072
G1 X-1.53 Y32.251 E2.21454
G1 X-1.899 Y31.745 E2.22239
G1 X-2.481 Y30.78 E2.23652
G1 X-2.999 Y29.882 E2.24952
G1 X-3.273 Y29.391 E2.25658
G1 X-3.53 Y28.818 E2.26445
G1 X-3.908 Y27.727 E2.27893
G1 X-4.146 Y26.996 E2.28857
G1 X-5.028 Y24.41 E2.32283
G1 X-5.975 Y21.869 E2.35684
G1 X-7.008 Y19.323 E2.3913
G1 X-8.094 Y16.849 E2.42518
G1 X-9.27 Y14.359 E2.45971
G1 X-10.488 Y11.964 E2.49341
G1 X-11.814 Y9.524 E2.52823
G1 X-13.173 Y7.189 E2.56211
G0 F3600 X-12.854 Y6.944
G1 F1800 X-14.264 Y4.668 E2.59569
G1 X-15.768 Y2.386 E2.62996
G1 X-17.369 Y0.104 E2.66492
G1 X-18.983 Y-2.066 E2.69883
G1 X-20.684 Y-4.222 E2.73327
G1 X-22.433 Y-6.313 E2.76746
G1 X-24.252 Y-8.368 E2.80187
G1 X-26.076 Y-10.317 E2.83535
G1 X-26.392 Y-10.713 E2.8417
G1 X-26.641 Y-11.153 E2.84804
G1 X-26.817 Y-11.626 E2.85437
G1 X-26.917 Y-12.122 E2.86071
G1 X-26.948 Y-12.732 E2.86837
G1 X-26.95 Y-12.83 E2.8696
G1 X-26.95 Y-21.839 E2.98258
G1 X-26.94 Y-22.536 E2.99132
G1 X-26.908 Y-23.055 E2.99784
G1 X-26.728 Y-24.778 E3.01957
G1 X-26.654 Y-25.408 E3.02752
G1 X-26.538 Y-25.966 E3.03467
G1 X-26.203 Y-27.064 E3.04906
G1 X-25.923 Y-27.924 E3.06041
G1 X-25.706 Y-28.561 E3.06885
G1 X-25.48 Y-29.072 E3.07585
G1 X-24.951 Y-30.032 E3.0896
G1 X-24.441 Y-30.915 E3.10239
G1 X-24.131 Y-31.433 E3.10996
G1 X-23.807 Y-31.881 E3.11689
G1 X-23.072 Y-32.731 E3.13098
G1 X-22.415 Y-33.46 E3.14329
G1 X-22.002 Y-33.908 E3.15093
G1 X-21.579 Y-34.291 E3.15808
G1 X-20.702 Y-34.954 E3.17187
G1 X-19.906 Y-35.532 E3.18421
G1 X-19.38 Y-35.902 E3.19227
G1 X-18.897 Y-36.183 E3.19928
G1 X-17.888 Y-36.655 E3.21325
G1 X-17.045 Y-37.03 E3.22482
G1 X-16.42 Y-37.298 E3.23335
G1 X-15.887 Y-37.473 E3.24038
G1 X-14.814 Y-37.723 E3.2542
G1 X-13.845 Y-37.929 E3.26662
G1 X-13.241 Y-38.049 E3.27434
G1 X-12.68 Y-38.109 E3.28142
G1 X-11.553 Y-38.131 E3.29555
G1 X-10.606 Y-38.131 E3.30743
G1 X-9.958 Y-38.122 E3.31556
G1 X-9.401 Y-38.065 E3.32258
G1 X-8.303 Y-37.854 E3.3366
G1 X-7.384 Y-37.658 E3.34838
G1 X-6.73 Y-37.509 E3.3568
G1 X-6.2 Y-37.338 E3.36378
G1 X-5.179 Y-36.908 E3.37767
G1 X-4.297 Y-36.515 E3.38978
G1 X-3.708 Y-36.243 E3.39792
G1 X-3.218 Y-35.962 E3.405
G1 X-2.345 Y-35.351 E3.41836
G1 X-1.54 Y-34.767 E3.43084
G1 X-1.014 Y-34.372 E3.43908
G1 X-.603 Y-34.003 E3.44601
G1 X0.134 Y-33.217 E3.45952
G1 X0.815 Y-32.461 E3.47228
G1 X1.227 Y-31.99 E3.48013
G1 X1.557 Y-31.538 E3.48715
G1 X2.135 Y-30.58 E3.50118
G1 X2.633 Y-29.715 E3.5137
G1 X2.922 Y-29.198 E3.52112
G1 X3.152 Y-28.687 E3.52815
G1 X3.528 Y-27.603 E3.54254
G1 X3.752 Y-26.914 E3.55162
G1 X4.658 Y-24.259 E3.5868
G1 X5.598 Y-21.735 E3.62058
G1 X6.642 Y-19.16 E3.65542
G1 X7.737 Y-16.666 E3.68958
G1 X8.896 Y-14.213 E3.7236
G1 X10.152 Y-11.742 E3.75836
G1 X11.454 Y-9.349 E3.79253
G1 X12.836 Y-6.973 E3.827
G1 X14.264 Y-4.668 E3.861
G1 X15.768 Y-2.386 E3.89527
G1 X17.369 Y-.104 E3.93023
G1 X18.983 Y2.066 E3.96415
G1 X20.684 Y4.222 E3.99858
G1 X22.432 Y6.312 E4.03275
G1 X24.252 Y8.368 E4.06719
G1 X26.076 Y10.317 E4.10066
G1 X26.392 Y10.713 E4.10701
G1 X26.641 Y11.153 E4.11335
G1 X26.817 Y11.626 E4.11968
G1 X26.917 Y12.122 E4.12603
G1 X26.948 Y12.732 E4.13369
G1 X26.95 Y12.83 E4.13492
G1 X26.95 Y21.839 E4.24789
G1 X26.94 Y22.536 E4.25664
G1 X26.908 Y23.055 E4.26316
G1 X26.728 Y24.778 E4.28488
G1 X26.654 Y25.408 E4.29284
G1 X26.538 Y25.966 E4.29998
G1 X26.203 Y27.064 E4.31438
G1 X25.923 Y27.924 E4.32572
G1 X25.706 Y28.561 E4.33416
G1 X25.48 Y29.072 E4.34117
G1 X24.951 Y30.032 E4.35491
G1 X24.441 Y30.915 E4.3677
G1 X24.131 Y31.433 E4.37527
G1 X23.806 Y31.882 E4.38222
G1 X23.076 Y32.726 E4.39621
G1 X22.415 Y33.46 E4.4086
G1 X22.002 Y33.908 E4.41624
G1 X21.579 Y34.291 E4.4234
G1 X20.702 Y34.954 E4.43719
G1 X19.908 Y35.531 E4.44949
G1 X19.383 Y35.901 E4.45755
G1 X18.897 Y36.183 E4.46459
G1 X17.888 Y36.655 E4.47856
G1 X17.045 Y37.03 E4.49013
G1 X16.42 Y37.298 E4.49866
G1 X15.887 Y37.473 E4.5057
G1 X14.814 Y37.723 E4.51951
G1 X13.845 Y37.929 E4.53194
G1 X13.241 Y38.049 E4.53966
G1 X12.68 Y38.109 E4.54673
G1 X11.553 Y38.131 E4.56087
G1 X10.606 Y38.131 E4.57275
G1 X9.958 Y38.122 E4.58087
G1 X9.401 Y38.065 E4.58789
G1 X8.303 Y37.854 E4.60192
G1 X7.384 Y37.658 E4.6137
G1 X6.73 Y37.509 E4.62211
G1 X6.2 Y37.338 E4.62909
G1 X5.179 Y36.908 E4.64299
G1 X4.297 Y36.515 E4.6551
G1 X3.708 Y36.243 E4.66323
G1 X3.217 Y35.961 E4.67033
G1 X2.344 Y35.351 E4.68369
G1 X1.54 Y34.767 E4.69615
G1 X1.014 Y34.372 E4.7044
G1 X0.603 Y34.003 E4.71133
G1 X-.134 Y33.217 E4.72484
G1 X-.844 Y32.429 E4.73814
G1 X-1.229 Y31.988 E4.74548
G1 X-1.557 Y31.538 E4.75246
G1 X-2.135 Y30.58 E4.76649
G1 X-2.649 Y29.687 E4.77941
G1 X-2.923 Y29.196 E4.78647
G1 X-3.152 Y28.687 E4.79347
G1 X-3.528 Y27.603 E4.80785
G1 X-3.766 Y26.872 E4.81749
G1 X-4.647 Y24.29 E4.85171
G1 X-5.623 Y21.671 E4.88676
G1 X-6.635 Y19.178 E4.9205
G1 X-7.737 Y16.666 E4.9549
G1 X-8.896 Y14.213 E4.98892
G1 X-10.152 Y11.742 E5.02368
G1 X-11.445 Y9.364 E5.05762
G1 X-12.854 Y6.944 E5.09274
G1 F1500 E-1.40726
;MESH:ikea_kitchen_hook.stl
G0 F3600 X-1.915 Y6.944
G0 X-.63 Y6.944
G0 X0.611 Y22.534
G0 X0.84 Y24.713
G0 X1.528 Y26.829
G0 X2.64 Y28.755
G0 X4.129 Y30.408
G0 X5.748 Y31.585
G0 X7.944 Y32.68
G0 X7.974 Y32.585
;TYPE:WALL-INNER
G1 F1500 E5.09274
G1 F1800 X10.142 Y33.045 E5.12053
G1 X12.358 Y33.045 E5.14832
G1 X14.526 Y32.585 E5.17612
G1 X16.552 Y31.682 E5.20393
G1 X18.345 Y30.379 E5.23173
G1 X19.828 Y28.732 E5.25952
G1 X20.936 Y26.813 E5.28731
G1 X21.622 Y24.705 E5.31511
G1 X21.85 Y22.531 E5.34252
G1 X21.85 Y13.1 E5.46079
G1 X23.15 Y13.1 E5.47709
G1 X23.15 Y22.466 E5.59454
G1 X22.886 Y24.977 E5.62621
G1 X22.119 Y27.335 E5.6573
G1 X20.875 Y29.492 E5.68853
G1 X19.211 Y31.339 E5.7197
G1 X17.195 Y32.804 E5.75095
G1 X14.928 Y33.814 E5.78208
G1 X12.493 Y34.331 E5.81329
G1 X10.007 Y34.331 E5.84447
G1 X7.572 Y33.814 E5.87569
G1 X5.305 Y32.804 E5.90681
G1 X3.289 Y31.339 E5.93806
G1 X1.625 Y29.492 E5.96924
G1 X0.381 Y27.335 E6.00046
G1 X-.386 Y24.977 E6.03156
G1 X-.65 Y22.466 E6.06322
G1 X-.65 Y-22.532 E6.62751
G1 X-.879 Y-24.705 E6.65491
G1 X-1.564 Y-26.813 E6.68271
G1 X-2.672 Y-28.732 E6.7105
G1 X-4.155 Y-30.379 E6.73829
G1 X-5.948 Y-31.682 E6.76608
G1 X-7.974 Y-32.585 E6.7939
G1 X-10.142 Y-33.045 E6.82169
G1 X-12.358 Y-33.045 E6.84948
G1 X-14.526 Y-32.585 E6.87727
G1 X-16.552 Y-31.682 E6.90509
G1 X-18.345 Y-30.379 E6.93289
G1 X-19.828 Y-28.732 E6.96068
G1 X-20.936 Y-26.813 E6.98847
G1 X-21.621 Y-24.705 E7.01626
G1 X-21.85 Y-22.532 E7.04366
G1 X-21.85 Y-13.1 E7.16195
G1 X-23.15 Y-13.1 E7.17825
G1 X-23.15 Y-22.466 E7.2957
G1 X-22.886 Y-24.977 E7.32736
G1 X-22.119 Y-27.335 E7.35846
G1 X-20.875 Y-29.492 E7.38968
G1 X-19.211 Y-31.339 E7.42086
G1 X-17.195 Y-32.804 E7.45211
G1 X-14.928 Y-33.814 E7.48323
G1 X-12.493 Y-34.331 E7.51445
G1 X-10.007 Y-34.331 E7.54563
G1 X-7.572 Y-33.814 E7.57684
G1 X-5.305 Y-32.804 E7.60797
G1 X-3.289 Y-31.339 E7.63922
G1 X-1.625 Y-29.492 E7.67039
G1 X-.381 Y-27.335 E7.70162
G1 X0.386 Y-24.977 E7.73271
G1 X0.65 Y-22.466 E7.76438
G1 X0.65 Y22.532 E8.32867
G1 X0.879 Y24.705 E8.35607
G1 X1.564 Y26.813 E8.38386
G1 X2.672 Y28.732 E8.41165
G1 X4.155 Y30.379 E8.43945
G1 X5.948 Y31.682 E8.46724
G1 X7.974 Y32.585 E8.49506
G0 F3600 X7.944 Y32.68
G0 X10.138 Y33.084
G0 X12.362 Y33.084
G0 X14.538 Y32.623
G0 X16.572 Y31.716
G0 X18.371 Y30.408
G0 X19.86 Y28.755
G0 X20.86 Y27.022
G0 X21.725 Y24.673
G0 X21.229 Y24.621
;TYPE:WALL-OUTER
G1 F1800 X21.45 Y22.51 E8.52167
G1 X21.45 Y12.7 E8.6447
G1 X23.55 Y12.7 E8.67103
G1 X23.55 Y22.489 E8.79379
G1 X23.28 Y25.058 E8.82618
G1 X22.485 Y27.502 E8.85841
G1 X21.202 Y29.727 E8.89062
G1 X19.479 Y31.639 E8.9229
G1 X17.398 Y33.151 E8.95515
G1 X15.052 Y34.196 E8.98736
G1 X12.534 Y34.731 E9.01964
G1 X9.966 Y34.731 E9.05185
G1 X7.448 Y34.196 E9.08413
G1 X5.102 Y33.151 E9.11633
G1 X3.021 Y31.639 E9.14859
G1 X1.298 Y29.727 E9.18087
G1 X0.015 Y27.502 E9.21308
G1 X-.78 Y25.058 E9.24531
G1 X-1.05 Y22.489 E9.2777
G1 X-1.05 Y-22.511 E9.84202
G1 X-1.272 Y-24.621 E9.86862
G1 X-1.931 Y-26.649 E9.89536
G1 X-2.997 Y-28.496 E9.92211
G1 X-4.424 Y-30.08 E9.94884
G1 X-6.149 Y-31.334 E9.97559
G1 X-8.098 Y-32.202 E10.00234
G1 X-10.184 Y-32.645 E10.02908
G1 X-12.316 Y-32.645 E10.05582
G1 X-14.402 Y-32.202 E10.08256
G1 X-16.351 Y-31.334 E10.10932
G1 X-18.076 Y-30.08 E10.13606
G1 X-19.503 Y-28.496 E10.1628
G1 X-20.569 Y-26.649 E10.18954
G1 X-21.228 Y-24.621 E10.21628
G1 X-21.45 Y-22.511 E10.24289
G1 X-21.45 Y-12.7 E10.36592
G1 X-23.55 Y-12.7 E10.39226
G1 X-23.55 Y-22.489 E10.51501
G1 X-23.28 Y-25.058 E10.54741
G1 X-22.485 Y-27.502 E10.57964
G1 X-21.202 Y-29.727 E10.61185
G1 X-19.479 Y-31.639 E10.64412
G1 X-17.398 Y-33.151 E10.67638
G1 X-15.052 Y-34.196 E10.70859
G1 X-12.534 Y-34.731 E10.74087
G1 X-9.966 Y-34.731 E10.77307
G1 X-7.448 Y-34.196 E10.80535
G1 X-5.102 Y-33.151 E10.83756
G1 X-3.021 Y-31.639 E10.86982
G1 X-1.298 Y-29.727 E10.90209
G1 X-0.015 Y-27.502 E10.9343
G1 X0.78 Y-25.058 E10.96653
G1 X1.05 Y-22.489 E10.99893
G1 X1.05 Y22.511 E11.56324
G1 X1.272 Y24.621 E11.58985
G1 X1.931 Y26.649 E11.61659
G1 X2.997 Y28.496 E11.64333
G1 X4.424 Y30.08 E11.67007
G1 X6.149 Y31.334 E11.69681
G1 X8.098 Y32.202 E11.72357
G1 X10.184 Y32.645 E11.75031
G1 X12.316 Y32.645 E11.77705
G1 X14.402 Y32.202 E11.80379
G1 X16.351 Y31.334 E11.83054
G1 X18.076 Y30.08 E11.85729
G1 X19.503 Y28.496 E11.88402
G1 X20.569 Y26.649 E11.91077
G1 X21.229 Y24.621 E11.93751
G0 F3600 X21.249 Y24.423
G0 X22.006 Y24.787
;TYPE:SKIN
G1 F1800 X22.24 Y22.551 E11.96571
G1 X22.24 Y13.49 E12.07933
G1 X22.76 Y13.49 E12.08585
G1 X22.76 Y22.445 E12.19815
G1 X22.502 Y24.895 E12.22905
G1 X21.76 Y27.175 E12.25912
G1 X20.558 Y29.262 E12.28932
G1 X18.95 Y31.045 E12.31943
G1 X16.997 Y32.465 E12.34971
G1 X14.807 Y33.44 E12.37977
G1 X12.45 Y33.941 E12.40999
G1 X10.05 Y33.941 E12.44009
G1 X7.693 Y33.44 E12.4703
G1 X5.503 Y32.465 E12.50037
G1 X3.55 Y31.045 E12.53065
G1 X1.942 Y29.262 E12.56076
G1 X0.74 Y27.175 E12.59096
G1 X-0.002 Y24.895 E12.62103
G1 X-.26 Y22.445 E12.65192
G1 X-.26 Y-22.553 E13.21621
G1 X-.495 Y-24.787 E13.24438
G1 X-1.205 Y-26.973 E13.2732
G1 X-2.354 Y-28.962 E13.30201
G1 X-3.892 Y-30.67 E13.33083
G1 X-5.751 Y-32.021 E13.35965
G1 X-7.853 Y-32.958 E13.38851
G1 X-10.101 Y-33.435 E13.41733
G1 X-12.399 Y-33.435 E13.44615
G1 X-14.647 Y-32.958 E13.47497
G1 X-16.749 Y-32.021 E13.50383
G1 X-18.608 Y-30.67 E13.53264
G1 X-20.146 Y-28.962 E13.56147
G1 X-21.295 Y-26.973 E13.59027
G1 X-22.005 Y-24.787 E13.6191
G1 X-22.24 Y-22.553 E13.64727
G1 X-22.24 Y-13.49 E13.76092
G1 X-22.76 Y-13.49 E13.76744
G1 X-22.76 Y-22.445 E13.87974
G1 X-22.502 Y-24.895 E13.91063
G1 X-21.76 Y-27.175 E13.9407
G1 X-20.558 Y-29.262 E13.9709
G1 X-18.95 Y-31.045 E14.00101
G1 X-16.997 Y-32.465 E14.03129
G1 X-14.807 Y-33.44 E14.06136
G1 X-12.45 Y-33.941 E14.09157
G1 X-10.05 Y-33.941 E14.12167
G1 X-7.693 Y-33.44 E14.15189
G1 X-5.503 Y-32.465 E14.18195
G1 X-3.55 Y-31.045 E14.21223
G1 X-1.942 Y-29.262 E14.24234
G1 X-.74 Y-27.175 E14.27254
G1 X0.002 Y-24.895 E14.30261
G1 X0.26 Y-22.445 E14.3335
G1 X0.26 Y22.553 E14.8978
G1 X0.495 Y24.787 E14.92597
G1 X1.205 Y26.973 E14.95479
G1 X2.354 Y28.962 E14.98359
G1 X3.892 Y30.67 E15.01242
G1 X5.751 Y32.021 E15.04124
G1 X7.853 Y32.958 E15.0701
G1 X10.101 Y33.435 E15.09891
G1 X12.399 Y33.435 E15.12773
G1 X14.647 Y32.958 E15.15655
G1 X16.749 Y32.021 E15.18541
G1 X18.608 Y30.67 E15.21423
G1 X20.146 Y28.962 E15.24305
G1 X21.295 Y26.973 E15.27186
G1 X22.006 Y24.787 E15.30068
G0 F3600 X20.972 Y26.829
G0 X19.86 Y28.755
G0 X18.371 Y30.408
G0 X16.572 Y31.716
G0 X14.538 Y32.623
G0 X12.362 Y33.084
G0 X10.138 Y33.084
G0 X8.18 Y32.67
G0 X3.981 Y31.134
G1 F1800 X2.885 Y30.038 E15.32012
G1 X2.815 Y29.968
G0 F3600 X1.833 Y28.42
G1 F1800 X1.437 Y28.024 E15.32714
